(** This GCode was generated by ReplicatorG 0040 **)
(*  using Skeinforge (35) - Legacy  *)
(*  for a Single headed Thing-O-Matic  *)
(*  on 2016/04/17 01:16:37 (+0200) *)
(**** beginning of start.gcode ****)
(This file is for a MakerBot Thing-O-Matic)
(**** begin initialization commands ****)
G21 (set units to mm)
G90 (set positioning to absolute)
M108 R5.0 (set extruder speed)
M103 (Make sure extruder is off)
M104 S240 T0 (set extruder temperature) (temp updated by printOMatic)
M109 S100 T0 (set heated-build-platform temperature)
(**** end initialization commands ****)
(**** begin homing ****)
G162 Z F1000 (home Z axis maximum)
G92 Z10 (set Z to 0)
G1 Z0 (move z down 10)
G162 Z F150 (home Z axis maximum)
G161 X Y F2500 (home XY axes minimum)
M132 X Y Z A B (Recall stored home offsets for XYZAB axis)
(**** end homing ****)
(**** begin pre-wipe commands ****)
( Some people have had problems with the nozzle hitting )
( bolts or wipers during this pre-extrusion warmup.     )
( If this happens to you, you can change the values for )
( the X and Y positions in the following code.          )
( The goal is to have the toolhead wipe its initial     )
( extrusion near the edge of the platform, [anchor it]  )
( so as not to have it interfere with the print.        )
( This file can be found in:                            )
( replicatorg/skein_engines/skeinforge-##/skeinforge_application/ )
( prefs/<profile name [e.g. Thingomatic-ABP-Mk7]>/alterations )
G1 X25 Y-60 Z10 F3300.0 (move to waiting position)
M6 T0 (wait for toolhead parts, nozzle, HBP, etc., to reach temperature)
G0 X25 Y-57 (Position Nozzle)
G0 Z0.6     (Position Height)
M108 R4.0   (Set Extruder Speed)
M101        (Start Extruder)
G4 P1500    (Create Anchor)
(**** end pre-wipe commands ****)
(**** end of start.gcode ****)
(<creation> skeinforge </creation>)
(<version> 10.11.05 </version>)
(<extruderInitialization>)
(<craftTypeName> extrusion </craftTypeName>)
M105
(<bridgeWidthMultiplier> 1.0 </bridgeWidthMultiplier>)
(<decimalPlacesCarried> 3 </decimalPlacesCarried>)
(<layerThickness> 0.3 </layerThickness>)
(<threadSequenceString> perimeter loops infill </threadSequenceString>)
(<operatingFeedRatePerSecond> 30.0 </operatingFeedRatePerSecond>)
(<operatingFlowRate> 1.17935176361 </operatingFlowRate>)
(<orbitalFeedRatePerSecond> 15.0 </orbitalFeedRatePerSecond>)
(<travelFeedRatePerSecond> 30.0 </travelFeedRatePerSecond>)
(<coolingRate> 3.0 </coolingRate>)
(<heatingRate> 10.0 </heatingRate>)
(<baseTemperature> 225.0 </baseTemperature>)
(<interfaceTemperature> 225.0 </interfaceTemperature>)
(<objectFirstLayerInfillTemperature> 225.0 </objectFirstLayerInfillTemperature>)
(<objectFirstLayerPerimeterTemperature> 225.0 </objectFirstLayerPerimeterTemperature>)
(<objectNextLayersTemperature> 225.0 </objectNextLayersTemperature>)
(<supportLayersTemperature> 225.0 </supportLayersTemperature>)
(<supportedLayersTemperature> 225.0 </supportedLayersTemperature>)
(<perimeterWidth> 0.419 </perimeterWidth>)
(<profileName> ABS </profileName>)
(<procedureDone> carve </procedureDone>)
(<procedureDone> preface </procedureDone>)
(<procedureDone> inset </procedureDone>)
(<procedureDone> fill </procedureDone>)
(<procedureDone> speed </procedureDone>)
(<procedureDone> temperature </procedureDone>)
(<procedureDone> raft </procedureDone>)
(<procedureDone> comb </procedureDone>)
(<procedureDone> cool </procedureDone>)
(<procedureDone> outline </procedureDone>)
(<procedureDone> export </procedureDone>)
(</extruderInitialization>)
(<extrusion>)
;M113 S1.0
M108 R1.179
M104 S225.0
(<layer> 0.78 )
G1 X-28.14 Y-21.62 Z0.78 F202.5
M101
G1 X-28.14 Y24.55 Z0.78 F202.5
G1 X30.23 Y24.55 Z0.78 F202.5
G1 X30.23 Y-21.62 Z0.78 F202.5
G1 X-28.14 Y-21.62 Z0.78 F202.5
M103
G1 X-25.14 Y-17.64 Z0.78 F202.5
M101
G1 X-25.14 Y20.57 Z0.78 F202.5
G1 X-23.05 Y21.55 Z0.78 F202.5
G1 X-23.05 Y-18.62 Z0.78 F202.5
G1 X-20.95 Y-18.62 Z0.78 F202.5
G1 X-20.95 Y21.55 Z0.78 F202.5
G1 X-18.86 Y21.55 Z0.78 F202.5
G1 X-18.86 Y-18.62 Z0.78 F202.5
G1 X-16.76 Y-18.62 Z0.78 F202.5
G1 X-16.76 Y21.55 Z0.78 F202.5
G1 X-14.66 Y21.55 Z0.78 F202.5
G1 X-14.66 Y-18.62 Z0.78 F202.5
G1 X-12.57 Y-18.62 Z0.78 F202.5
G1 X-12.57 Y21.55 Z0.78 F202.5
G1 X-10.47 Y21.55 Z0.78 F202.5
G1 X-10.47 Y-18.62 Z0.78 F202.5
G1 X-8.38 Y-18.62 Z0.78 F202.5
G1 X-8.38 Y21.55 Z0.78 F202.5
G1 X-6.29 Y21.55 Z0.78 F202.5
G1 X-6.29 Y-18.62 Z0.78 F202.5
G1 X-4.19 Y-18.62 Z0.78 F202.5
G1 X-4.19 Y21.55 Z0.78 F202.5
G1 X-2.1 Y21.55 Z0.78 F202.5
G1 X-2.1 Y-18.62 Z0.78 F202.5
G1 X0.0 Y-18.62 Z0.78 F202.5
G1 X0.0 Y21.55 Z0.78 F202.5
G1 X2.1 Y21.55 Z0.78 F202.5
G1 X2.1 Y-18.62 Z0.78 F202.5
G1 X4.19 Y-18.62 Z0.78 F202.5
G1 X4.19 Y21.55 Z0.78 F202.5
G1 X6.29 Y21.55 Z0.78 F202.5
G1 X6.29 Y-18.62 Z0.78 F202.5
G1 X8.38 Y-18.62 Z0.78 F202.5
G1 X8.38 Y21.55 Z0.78 F202.5
G1 X10.47 Y21.55 Z0.78 F202.5
G1 X10.47 Y-18.62 Z0.78 F202.5
G1 X12.57 Y-18.62 Z0.78 F202.5
G1 X12.57 Y21.55 Z0.78 F202.5
G1 X14.66 Y21.55 Z0.78 F202.5
G1 X14.66 Y-18.62 Z0.78 F202.5
G1 X16.76 Y-18.62 Z0.78 F202.5
G1 X16.76 Y21.55 Z0.78 F202.5
G1 X18.86 Y21.55 Z0.78 F202.5
G1 X18.86 Y-18.62 Z0.78 F202.5
G1 X20.95 Y-18.62 Z0.78 F202.5
G1 X20.95 Y21.55 Z0.78 F202.5
G1 X23.05 Y21.55 Z0.78 F202.5
G1 X23.05 Y-18.62 Z0.78 F202.5
G1 X25.14 Y-18.62 Z0.78 F202.5
G1 X25.14 Y21.55 Z0.78 F202.5
G1 X27.23 Y19.59 Z0.78 F202.5
G1 X27.23 Y-16.66 Z0.78 F202.5
M103
(</layer>)
(<layer> 0.747 )
M108 R0.8255
G1 X-25.16 Y0.0 Z0.75 F7346.939
M101
G1 X27.25 Y0.0 Z0.75 F7346.939
G1 X27.25 Y-0.98 Z0.75 F7346.939
G1 X-25.16 Y-0.98 Z0.75 F7346.939
G1 X-25.16 Y-1.96 Z0.75 F7346.939
G1 X27.25 Y-1.96 Z0.75 F7346.939
G1 X27.25 Y-2.93 Z0.75 F7346.939
G1 X-25.16 Y-2.93 Z0.75 F7346.939
G1 X-25.16 Y-3.91 Z0.75 F7346.939
G1 X27.25 Y-3.91 Z0.75 F7346.939
G1 X27.25 Y-4.89 Z0.75 F7346.939
G1 X-25.16 Y-4.89 Z0.75 F7346.939
G1 X-25.16 Y-5.87 Z0.75 F7346.939
G1 X27.25 Y-5.87 Z0.75 F7346.939
G1 X27.25 Y-6.84 Z0.75 F7346.939
G1 X-25.16 Y-6.84 Z0.75 F7346.939
G1 X-25.16 Y-7.82 Z0.75 F7346.939
G1 X27.25 Y-7.82 Z0.75 F7346.939
G1 X27.25 Y-8.8 Z0.75 F7346.939
G1 X-25.16 Y-8.8 Z0.75 F7346.939
G1 X-25.16 Y-9.78 Z0.75 F7346.939
G1 X27.25 Y-9.78 Z0.75 F7346.939
G1 X27.25 Y-10.75 Z0.75 F7346.939
G1 X-25.16 Y-10.75 Z0.75 F7346.939
G1 X-25.16 Y-11.73 Z0.75 F7346.939
G1 X27.25 Y-11.73 Z0.75 F7346.939
G1 X27.25 Y-12.71 Z0.75 F7346.939
G1 X-25.16 Y-12.71 Z0.75 F7346.939
G1 X-25.16 Y-13.69 Z0.75 F7346.939
G1 X27.25 Y-13.69 Z0.75 F7346.939
G1 X27.25 Y-14.66 Z0.75 F7346.939
G1 X-25.16 Y-14.66 Z0.75 F7346.939
G1 X-25.16 Y-15.64 Z0.75 F7346.939
G1 X27.25 Y-15.64 Z0.75 F7346.939
G1 X27.25 Y-16.62 Z0.75 F7346.939
G1 X-25.16 Y-16.62 Z0.75 F7346.939
G1 X-25.16 Y-17.6 Z0.75 F7346.939
G1 X25.16 Y-17.6 Z0.75 F7346.939
G1 X25.16 Y-18.58 Z0.75 F7346.939
G1 X-23.06 Y-18.58 Z0.75 F7346.939
M103
G1 X-25.16 Y0.98 Z0.75 F7346.939
M101
G1 X27.25 Y0.98 Z0.75 F7346.939
G1 X27.25 Y1.96 Z0.75 F7346.939
G1 X-25.16 Y1.96 Z0.75 F7346.939
G1 X-25.16 Y2.93 Z0.75 F7346.939
G1 X27.25 Y2.93 Z0.75 F7346.939
G1 X27.25 Y3.91 Z0.75 F7346.939
G1 X-25.16 Y3.91 Z0.75 F7346.939
G1 X-25.16 Y4.89 Z0.75 F7346.939
G1 X27.25 Y4.89 Z0.75 F7346.939
G1 X27.25 Y5.87 Z0.75 F7346.939
G1 X-25.16 Y5.87 Z0.75 F7346.939
G1 X-25.16 Y6.84 Z0.75 F7346.939
G1 X27.25 Y6.84 Z0.75 F7346.939
G1 X27.25 Y7.82 Z0.75 F7346.939
G1 X-25.16 Y7.82 Z0.75 F7346.939
G1 X-25.16 Y8.8 Z0.75 F7346.939
G1 X27.25 Y8.8 Z0.75 F7346.939
G1 X27.25 Y9.78 Z0.75 F7346.939
G1 X-25.16 Y9.78 Z0.75 F7346.939
G1 X-25.16 Y10.75 Z0.75 F7346.939
G1 X27.25 Y10.75 Z0.75 F7346.939
G1 X27.25 Y11.73 Z0.75 F7346.939
G1 X-25.16 Y11.73 Z0.75 F7346.939
G1 X-25.16 Y12.71 Z0.75 F7346.939
G1 X27.25 Y12.71 Z0.75 F7346.939
G1 X27.25 Y13.69 Z0.75 F7346.939
G1 X-25.16 Y13.69 Z0.75 F7346.939
G1 X-25.16 Y14.66 Z0.75 F7346.939
G1 X27.25 Y14.66 Z0.75 F7346.939
G1 X27.25 Y15.64 Z0.75 F7346.939
G1 X-25.16 Y15.64 Z0.75 F7346.939
G1 X-25.16 Y16.62 Z0.75 F7346.939
G1 X27.25 Y16.62 Z0.75 F7346.939
G1 X27.25 Y17.6 Z0.75 F7346.939
G1 X-25.16 Y17.6 Z0.75 F7346.939
G1 X-25.16 Y18.58 Z0.75 F7346.939
G1 X27.25 Y18.58 Z0.75 F7346.939
G1 X27.25 Y19.55 Z0.75 F7346.939
G1 X-25.16 Y19.55 Z0.75 F7346.939
G1 X-25.16 Y20.53 Z0.75 F7346.939
G1 X25.16 Y20.53 Z0.75 F7346.939
G1 X25.16 Y21.51 Z0.75 F7346.939
G1 X-23.06 Y21.51 Z0.75 F7346.939
M103
M108 R1.179
(</layer>)
(<raftLayerEnd> </raftLayerEnd>)
(<layer> 0.96 )
(<surroundingLoop>)
(<boundaryPerimeter>)
(<boundaryPoint> X21.568 Y-13.878 Z0.96 </boundaryPoint>)
(<boundaryPoint> X21.568 Y17.224 Z0.96 </boundaryPoint>)
(<boundaryPoint> X21.008 Y17.784 Z0.96 </boundaryPoint>)
(<boundaryPoint> X-19.937 Y17.784 Z0.96 </boundaryPoint>)
(<boundaryPoint> X-20.496 Y17.224 Z0.96 </boundaryPoint>)
(<boundaryPoint> X-20.496 Y-13.878 Z0.96 </boundaryPoint>)
(<boundaryPoint> X-19.937 Y-14.438 Z0.96 </boundaryPoint>)
(<boundaryPoint> X21.008 Y-14.438 Z0.96 </boundaryPoint>)
(<perimeter> outer )
M108 R0.5897
M108 R0.4128
G1 X0.0 Y-14.23 Z0.96 F1080.0
M101
G1 X20.92 Y-14.23 Z0.96 F540.0
G1 X21.36 Y-13.79 Z0.96 F540.0
G1 X21.36 Y17.14 Z0.96 F540.0
G1 X20.92 Y17.57 Z0.96 F540.0
G1 X-19.85 Y17.57 Z0.96 F540.0
G1 X-20.29 Y17.14 Z0.96 F540.0
G1 X-20.29 Y-13.79 Z0.96 F540.0
G1 X-19.85 Y-14.23 Z0.96 F540.0
G1 X0.0 Y-14.23 Z0.96 F540.0
M103
(</perimeter>)
(</boundaryPerimeter>)
(<loop> outer )
M108 R1.179
M108 R0.8253
G1 X0.0 Y-13.81 Z0.96 F1080.0
M101
G1 X20.75 Y-13.81 Z0.96 F1080.0
G1 X20.94 Y-13.62 Z0.96 F1080.0
G1 X20.94 Y16.96 Z0.96 F1080.0
G1 X20.75 Y17.16 Z0.96 F1080.0
G1 X-19.68 Y17.16 Z0.96 F1080.0
G1 X-19.87 Y16.96 Z0.96 F1080.0
G1 X-19.87 Y-13.62 Z0.96 F1080.0
G1 X-19.68 Y-13.81 Z0.96 F1080.0
G1 X0.0 Y-13.81 Z0.96 F1080.0
M103
(</loop>)
G1 X0.0 Y16.88 Z0.96 F1080.0
M101
G1 X-0.0 Y-13.54 Z0.96 F1080.0
M103
G1 X-0.42 Y-13.54 Z0.96 F1080.0
M101
G1 X-0.42 Y16.88 Z0.96 F1080.0
M103
G1 X-0.84 Y16.88 Z0.96 F1080.0
M101
G1 X-0.84 Y-13.54 Z0.96 F1080.0
M103
G1 X-1.26 Y-13.54 Z0.96 F1080.0
M101
G1 X-1.26 Y16.88 Z0.96 F1080.0
M103
G1 X-1.68 Y16.88 Z0.96 F1080.0
M101
G1 X-1.68 Y-13.54 Z0.96 F1080.0
M103
G1 X-2.09 Y-13.54 Z0.96 F1080.0
M101
G1 X-2.09 Y16.88 Z0.96 F1080.0
M103
G1 X-2.51 Y16.88 Z0.96 F1080.0
M101
G1 X-2.51 Y-13.54 Z0.96 F1080.0
M103
G1 X-2.93 Y-13.54 Z0.96 F1080.0
M101
G1 X-2.93 Y16.88 Z0.96 F1080.0
M103
G1 X-3.35 Y16.88 Z0.96 F1080.0
M101
G1 X-3.35 Y-13.54 Z0.96 F1080.0
M103
G1 X-3.77 Y-13.54 Z0.96 F1080.0
M101
G1 X-3.77 Y16.88 Z0.96 F1080.0
M103
G1 X-4.19 Y16.88 Z0.96 F1080.0
M101
G1 X-4.19 Y-13.54 Z0.96 F1080.0
M103
G1 X-4.61 Y-13.54 Z0.96 F1080.0
M101
G1 X-4.61 Y16.88 Z0.96 F1080.0
M103
G1 X-5.03 Y16.88 Z0.96 F1080.0
M101
G1 X-5.03 Y-13.54 Z0.96 F1080.0
M103
G1 X-5.45 Y-13.54 Z0.96 F1080.0
M101
G1 X-5.45 Y16.88 Z0.96 F1080.0
M103
G1 X-5.86 Y16.88 Z0.96 F1080.0
M101
G1 X-5.86 Y-13.54 Z0.96 F1080.0
M103
G1 X-6.28 Y-13.54 Z0.96 F1080.0
M101
G1 X-6.28 Y16.88 Z0.96 F1080.0
M103
G1 X-6.7 Y16.88 Z0.96 F1080.0
M101
G1 X-6.7 Y-13.54 Z0.96 F1080.0
M103
G1 X-7.12 Y-13.54 Z0.96 F1080.0
M101
G1 X-7.12 Y16.88 Z0.96 F1080.0
M103
G1 X-7.54 Y16.88 Z0.96 F1080.0
M101
G1 X-7.54 Y-13.54 Z0.96 F1080.0
M103
G1 X-7.96 Y-13.54 Z0.96 F1080.0
M101
G1 X-7.96 Y16.88 Z0.96 F1080.0
M103
G1 X-8.38 Y16.88 Z0.96 F1080.0
M101
G1 X-8.38 Y-13.54 Z0.96 F1080.0
M103
G1 X-8.8 Y-13.54 Z0.96 F1080.0
M101
G1 X-8.8 Y16.88 Z0.96 F1080.0
M103
G1 X-9.21 Y16.88 Z0.96 F1080.0
M101
G1 X-9.21 Y-13.54 Z0.96 F1080.0
M103
G1 X-9.63 Y-13.54 Z0.96 F1080.0
M101
G1 X-9.63 Y16.88 Z0.96 F1080.0
M103
G1 X-10.05 Y16.88 Z0.96 F1080.0
M101
G1 X-10.05 Y-13.54 Z0.96 F1080.0
M103
G1 X-10.47 Y-13.54 Z0.96 F1080.0
M101
G1 X-10.47 Y16.88 Z0.96 F1080.0
M103
G1 X-10.89 Y16.88 Z0.96 F1080.0
M101
G1 X-10.89 Y-13.54 Z0.96 F1080.0
M103
G1 X-11.31 Y-13.54 Z0.96 F1080.0
M101
G1 X-11.31 Y16.88 Z0.96 F1080.0
M103
G1 X-11.73 Y16.88 Z0.96 F1080.0
M101
G1 X-11.73 Y-13.54 Z0.96 F1080.0
M103
G1 X-12.15 Y-13.54 Z0.96 F1080.0
M101
G1 X-12.15 Y16.88 Z0.96 F1080.0
M103
G1 X-12.57 Y16.88 Z0.96 F1080.0
M101
G1 X-12.57 Y-13.54 Z0.96 F1080.0
M103
G1 X-12.98 Y-13.54 Z0.96 F1080.0
M101
G1 X-12.98 Y16.88 Z0.96 F1080.0
M103
G1 X-13.4 Y16.88 Z0.96 F1080.0
M101
G1 X-13.4 Y-13.54 Z0.96 F1080.0
M103
G1 X-13.82 Y-13.54 Z0.96 F1080.0
M101
G1 X-13.82 Y16.88 Z0.96 F1080.0
M103
G1 X-14.24 Y16.88 Z0.96 F1080.0
M101
G1 X-14.24 Y-13.54 Z0.96 F1080.0
M103
G1 X-14.66 Y-13.54 Z0.96 F1080.0
M101
G1 X-14.66 Y16.88 Z0.96 F1080.0
M103
G1 X-15.08 Y16.88 Z0.96 F1080.0
M101
G1 X-15.08 Y-13.54 Z0.96 F1080.0
M103
G1 X-15.5 Y-13.54 Z0.96 F1080.0
M101
G1 X-15.5 Y16.88 Z0.96 F1080.0
M103
G1 X-15.92 Y16.88 Z0.96 F1080.0
M101
G1 X-15.92 Y-13.54 Z0.96 F1080.0
M103
G1 X-16.34 Y-13.54 Z0.96 F1080.0
M101
G1 X-16.34 Y16.88 Z0.96 F1080.0
M103
G1 X-16.75 Y16.88 Z0.96 F1080.0
M101
G1 X-16.75 Y-13.54 Z0.96 F1080.0
M103
G1 X-17.17 Y-13.54 Z0.96 F1080.0
M101
G1 X-17.17 Y16.88 Z0.96 F1080.0
M103
G1 X-17.59 Y16.88 Z0.96 F1080.0
M101
G1 X-17.59 Y-13.54 Z0.96 F1080.0
M103
G1 X-18.01 Y-13.54 Z0.96 F1080.0
M101
G1 X-18.01 Y16.88 Z0.96 F1080.0
M103
G1 X-18.43 Y16.88 Z0.96 F1080.0
M101
G1 X-18.43 Y-13.54 Z0.96 F1080.0
M103
G1 X-18.85 Y-13.54 Z0.96 F1080.0
M101
G1 X-18.85 Y16.88 Z0.96 F1080.0
M103
G1 X-19.27 Y16.88 Z0.96 F1080.0
M101
G1 X-19.27 Y-13.54 Z0.96 F1080.0
M103
G1 X0.42 Y-13.54 Z0.96 F1080.0
M101
G1 X0.42 Y16.88 Z0.96 F1080.0
M103
G1 X0.84 Y16.88 Z0.96 F1080.0
M101
G1 X0.84 Y-13.54 Z0.96 F1080.0
M103
G1 X1.26 Y-13.54 Z0.96 F1080.0
M101
G1 X1.26 Y16.88 Z0.96 F1080.0
M103
G1 X1.68 Y16.88 Z0.96 F1080.0
M101
G1 X1.68 Y-13.54 Z0.96 F1080.0
M103
G1 X2.09 Y-13.54 Z0.96 F1080.0
M101
G1 X2.09 Y16.88 Z0.96 F1080.0
M103
G1 X2.51 Y16.88 Z0.96 F1080.0
M101
G1 X2.51 Y-13.54 Z0.96 F1080.0
M103
G1 X2.93 Y-13.54 Z0.96 F1080.0
M101
G1 X2.93 Y16.88 Z0.96 F1080.0
M103
G1 X3.35 Y16.88 Z0.96 F1080.0
M101
G1 X3.35 Y-13.54 Z0.96 F1080.0
M103
G1 X3.77 Y-13.54 Z0.96 F1080.0
M101
G1 X3.77 Y16.88 Z0.96 F1080.0
M103
G1 X4.19 Y16.88 Z0.96 F1080.0
M101
G1 X4.19 Y-13.54 Z0.96 F1080.0
M103
G1 X4.61 Y-13.54 Z0.96 F1080.0
M101
G1 X4.61 Y16.88 Z0.96 F1080.0
M103
G1 X5.03 Y16.88 Z0.96 F1080.0
M101
G1 X5.03 Y-13.54 Z0.96 F1080.0
M103
G1 X5.45 Y-13.54 Z0.96 F1080.0
M101
G1 X5.45 Y16.88 Z0.96 F1080.0
M103
G1 X5.86 Y16.88 Z0.96 F1080.0
M101
G1 X5.86 Y-13.54 Z0.96 F1080.0
M103
G1 X6.28 Y-13.54 Z0.96 F1080.0
M101
G1 X6.28 Y16.88 Z0.96 F1080.0
M103
G1 X6.7 Y16.88 Z0.96 F1080.0
M101
G1 X6.7 Y-13.54 Z0.96 F1080.0
M103
G1 X7.12 Y-13.54 Z0.96 F1080.0
M101
G1 X7.12 Y16.88 Z0.96 F1080.0
M103
G1 X7.54 Y16.88 Z0.96 F1080.0
M101
G1 X7.54 Y-13.54 Z0.96 F1080.0
M103
G1 X7.96 Y-13.54 Z0.96 F1080.0
M101
G1 X7.96 Y16.88 Z0.96 F1080.0
M103
G1 X8.38 Y16.88 Z0.96 F1080.0
M101
G1 X8.38 Y-13.54 Z0.96 F1080.0
M103
G1 X8.8 Y-13.54 Z0.96 F1080.0
M101
G1 X8.8 Y16.88 Z0.96 F1080.0
M103
G1 X9.21 Y16.88 Z0.96 F1080.0
M101
G1 X9.21 Y-13.54 Z0.96 F1080.0
M103
G1 X9.63 Y-13.54 Z0.96 F1080.0
M101
G1 X9.63 Y16.88 Z0.96 F1080.0
M103
G1 X10.05 Y16.88 Z0.96 F1080.0
M101
G1 X10.05 Y-13.54 Z0.96 F1080.0
M103
G1 X10.47 Y-13.54 Z0.96 F1080.0
M101
G1 X10.47 Y16.88 Z0.96 F1080.0
M103
G1 X10.89 Y16.88 Z0.96 F1080.0
M101
G1 X10.89 Y-13.54 Z0.96 F1080.0
M103
G1 X11.31 Y-13.54 Z0.96 F1080.0
M101
G1 X11.31 Y16.88 Z0.96 F1080.0
M103
G1 X11.73 Y16.88 Z0.96 F1080.0
M101
G1 X11.73 Y-13.54 Z0.96 F1080.0
M103
G1 X12.15 Y-13.54 Z0.96 F1080.0
M101
G1 X12.15 Y16.88 Z0.96 F1080.0
M103
G1 X12.57 Y16.88 Z0.96 F1080.0
M101
G1 X12.57 Y-13.54 Z0.96 F1080.0
M103
G1 X12.98 Y-13.54 Z0.96 F1080.0
M101
G1 X12.98 Y16.88 Z0.96 F1080.0
M103
G1 X13.4 Y16.88 Z0.96 F1080.0
M101
G1 X13.4 Y-13.54 Z0.96 F1080.0
M103
G1 X13.82 Y-13.54 Z0.96 F1080.0
M101
G1 X13.82 Y16.88 Z0.96 F1080.0
M103
G1 X14.24 Y16.88 Z0.96 F1080.0
M101
G1 X14.24 Y-13.54 Z0.96 F1080.0
M103
G1 X14.66 Y-13.54 Z0.96 F1080.0
M101
G1 X14.66 Y16.88 Z0.96 F1080.0
M103
G1 X15.08 Y16.88 Z0.96 F1080.0
M101
G1 X15.08 Y-13.54 Z0.96 F1080.0
M103
G1 X15.5 Y-13.54 Z0.96 F1080.0
M101
G1 X15.5 Y16.88 Z0.96 F1080.0
M103
G1 X15.92 Y16.88 Z0.96 F1080.0
M101
G1 X15.92 Y-13.54 Z0.96 F1080.0
M103
G1 X16.34 Y-13.54 Z0.96 F1080.0
M101
G1 X16.34 Y16.88 Z0.96 F1080.0
M103
G1 X16.75 Y16.88 Z0.96 F1080.0
M101
G1 X16.75 Y-13.54 Z0.96 F1080.0
M103
G1 X17.17 Y-13.54 Z0.96 F1080.0
M101
G1 X17.17 Y16.88 Z0.96 F1080.0
M103
G1 X17.59 Y16.88 Z0.96 F1080.0
M101
G1 X17.59 Y-13.54 Z0.96 F1080.0
M103
G1 X18.01 Y-13.54 Z0.96 F1080.0
M101
G1 X18.01 Y16.88 Z0.96 F1080.0
M103
G1 X18.43 Y16.88 Z0.96 F1080.0
M101
G1 X18.43 Y-13.54 Z0.96 F1080.0
M103
G1 X18.85 Y-13.54 Z0.96 F1080.0
M101
G1 X18.85 Y16.88 Z0.96 F1080.0
M103
G1 X19.27 Y16.88 Z0.96 F1080.0
M101
G1 X19.27 Y-13.54 Z0.96 F1080.0
M103
G1 X19.69 Y-13.54 Z0.96 F1080.0
M101
G1 X19.69 Y16.88 Z0.96 F1080.0
M103
G1 X20.11 Y16.88 Z0.96 F1080.0
M101
G1 X20.11 Y-13.54 Z0.96 F1080.0
M103
G1 X20.52 Y-13.54 Z0.96 F1080.0
M101
G1 X20.52 Y16.88 Z0.96 F1080.0
M103
(</surroundingLoop>)
(</layer>)
(<layer> 1.26 )
(<surroundingLoop>)
(<boundaryPerimeter>)
(<boundaryPoint> X-20.603 Y17.815 Z1.26 </boundaryPoint>)
(<boundaryPoint> X-20.819 Y17.224 Z1.26 </boundaryPoint>)
(<boundaryPoint> X-20.819 Y-13.878 Z1.26 </boundaryPoint>)
(<boundaryPoint> X-20.706 Y-14.3 Z1.26 </boundaryPoint>)
(<boundaryPoint> X-20.527 Y-14.544 Z1.26 </boundaryPoint>)
(<boundaryPoint> X-19.937 Y-14.76 Z1.26 </boundaryPoint>)
(<boundaryPoint> X21.008 Y-14.76 Z1.26 </boundaryPoint>)
(<boundaryPoint> X21.599 Y-14.544 Z1.26 </boundaryPoint>)
(<boundaryPoint> X21.778 Y-14.3 Z1.26 </boundaryPoint>)
(<boundaryPoint> X21.891 Y-13.878 Z1.26 </boundaryPoint>)
(<boundaryPoint> X21.891 Y17.224 Z1.26 </boundaryPoint>)
(<boundaryPoint> X21.675 Y17.815 Z1.26 </boundaryPoint>)
(<boundaryPoint> X21.43 Y17.994 Z1.26 </boundaryPoint>)
(<boundaryPoint> X21.008 Y18.107 Z1.26 </boundaryPoint>)
(<boundaryPoint> X-19.937 Y18.107 Z1.26 </boundaryPoint>)
(<boundaryPoint> X-20.359 Y17.994 Z1.26 </boundaryPoint>)
(<perimeter> outer )
M108 R0.5897
G1 X20.52 Y17.9 Z1.26 F1800.0
M101
G1 X-19.91 Y17.9 Z1.26 F900.0
G1 X-20.27 Y17.8 Z1.26 F900.0
G1 X-20.43 Y17.68 Z1.26 F900.0
G1 X-20.61 Y17.19 Z1.26 F900.0
G1 X-20.61 Y-13.85 Z1.26 F900.0
G1 X-20.51 Y-14.21 Z1.26 F900.0
G1 X-20.4 Y-14.37 Z1.26 F900.0
G1 X-19.9 Y-14.55 Z1.26 F900.0
G1 X20.97 Y-14.55 Z1.26 F900.0
G1 X21.47 Y-14.37 Z1.26 F900.0
G1 X21.59 Y-14.21 Z1.26 F900.0
G1 X21.68 Y-13.85 Z1.26 F900.0
G1 X21.68 Y17.19 Z1.26 F900.0
G1 X21.5 Y17.68 Z1.26 F900.0
G1 X21.34 Y17.8 Z1.26 F900.0
G1 X20.98 Y17.9 Z1.26 F900.0
G1 X20.52 Y17.9 Z1.26 F900.0
M103
(</perimeter>)
(</boundaryPerimeter>)
(<loop> outer )
M108 R1.179
G1 X20.52 Y17.48 Z1.26 F1800.0
M101
G1 X-19.85 Y17.48 Z1.26 F1800.0
G1 X-20.08 Y17.42 Z1.26 F1800.0
G1 X-20.19 Y17.11 Z1.26 F1800.0
G1 X-20.19 Y-13.79 Z1.26 F1800.0
G1 X-20.13 Y-14.02 Z1.26 F1800.0
G1 X-19.83 Y-14.13 Z1.26 F1800.0
G1 X20.9 Y-14.13 Z1.26 F1800.0
G1 X21.2 Y-14.02 Z1.26 F1800.0
G1 X21.26 Y-13.79 Z1.26 F1800.0
G1 X21.26 Y17.11 Z1.26 F1800.0
G1 X21.15 Y17.42 Z1.26 F1800.0
G1 X20.93 Y17.48 Z1.26 F1800.0
G1 X20.52 Y17.48 Z1.26 F1800.0
M103
(</loop>)
G1 X20.95 Y17.17 Z1.26 F1800.0
M101
G1 X-19.88 Y17.17 Z1.26 F1800.0
M103
G1 X-19.92 Y16.75 Z1.26 F1800.0
M101
G1 X20.99 Y16.75 Z1.26 F1800.0
G1 X20.99 Y16.34 Z1.26 F1800.0
G1 X-19.92 Y16.34 Z1.26 F1800.0
M103
G1 X-19.92 Y15.92 Z1.26 F1800.0
M101
G1 X20.99 Y15.92 Z1.26 F1800.0
G1 X20.99 Y15.5 Z1.26 F1800.0
G1 X-19.92 Y15.5 Z1.26 F1800.0
M103
G1 X-19.92 Y15.08 Z1.26 F1800.0
M101
G1 X20.99 Y15.08 Z1.26 F1800.0
G1 X20.99 Y14.66 Z1.26 F1800.0
G1 X-19.92 Y14.66 Z1.26 F1800.0
M103
G1 X-19.92 Y14.24 Z1.26 F1800.0
M101
G1 X20.99 Y14.24 Z1.26 F1800.0
G1 X20.99 Y13.82 Z1.26 F1800.0
G1 X-19.92 Y13.82 Z1.26 F1800.0
M103
G1 X-19.92 Y13.4 Z1.26 F1800.0
M101
G1 X20.99 Y13.4 Z1.26 F1800.0
G1 X20.99 Y12.98 Z1.26 F1800.0
G1 X-19.92 Y12.98 Z1.26 F1800.0
M103
G1 X-19.92 Y12.57 Z1.26 F1800.0
M101
G1 X20.99 Y12.57 Z1.26 F1800.0
G1 X20.99 Y12.15 Z1.26 F1800.0
G1 X-19.92 Y12.15 Z1.26 F1800.0
M103
G1 X-19.92 Y11.73 Z1.26 F1800.0
M101
G1 X20.99 Y11.73 Z1.26 F1800.0
G1 X20.99 Y11.31 Z1.26 F1800.0
G1 X-19.92 Y11.31 Z1.26 F1800.0
M103
G1 X-19.92 Y10.89 Z1.26 F1800.0
M101
G1 X20.99 Y10.89 Z1.26 F1800.0
G1 X20.99 Y10.47 Z1.26 F1800.0
G1 X-19.92 Y10.47 Z1.26 F1800.0
M103
G1 X-19.92 Y10.05 Z1.26 F1800.0
M101
G1 X20.99 Y10.05 Z1.26 F1800.0
G1 X20.99 Y9.63 Z1.26 F1800.0
G1 X-19.92 Y9.63 Z1.26 F1800.0
M103
G1 X-19.92 Y9.21 Z1.26 F1800.0
M101
G1 X20.99 Y9.21 Z1.26 F1800.0
G1 X20.99 Y8.8 Z1.26 F1800.0
G1 X-19.92 Y8.8 Z1.26 F1800.0
M103
G1 X-19.92 Y8.38 Z1.26 F1800.0
M101
G1 X20.99 Y8.38 Z1.26 F1800.0
G1 X20.99 Y7.96 Z1.26 F1800.0
G1 X-19.92 Y7.96 Z1.26 F1800.0
M103
G1 X-19.92 Y7.54 Z1.26 F1800.0
M101
G1 X20.99 Y7.54 Z1.26 F1800.0
G1 X20.99 Y7.12 Z1.26 F1800.0
G1 X-19.92 Y7.12 Z1.26 F1800.0
M103
G1 X-19.92 Y6.7 Z1.26 F1800.0
M101
G1 X20.99 Y6.7 Z1.26 F1800.0
G1 X20.99 Y6.28 Z1.26 F1800.0
G1 X-19.92 Y6.28 Z1.26 F1800.0
M103
G1 X-19.92 Y5.86 Z1.26 F1800.0
M101
G1 X20.99 Y5.86 Z1.26 F1800.0
G1 X20.99 Y5.45 Z1.26 F1800.0
G1 X-19.92 Y5.45 Z1.26 F1800.0
M103
G1 X-19.92 Y5.03 Z1.26 F1800.0
M101
G1 X20.99 Y5.03 Z1.26 F1800.0
G1 X20.99 Y4.61 Z1.26 F1800.0
G1 X-19.92 Y4.61 Z1.26 F1800.0
M103
G1 X-19.92 Y4.19 Z1.26 F1800.0
M101
G1 X20.99 Y4.19 Z1.26 F1800.0
G1 X20.99 Y3.77 Z1.26 F1800.0
G1 X-19.92 Y3.77 Z1.26 F1800.0
M103
G1 X-19.92 Y3.35 Z1.26 F1800.0
M101
G1 X20.99 Y3.35 Z1.26 F1800.0
G1 X20.99 Y2.93 Z1.26 F1800.0
G1 X-19.92 Y2.93 Z1.26 F1800.0
M103
G1 X-19.92 Y2.51 Z1.26 F1800.0
M101
G1 X20.99 Y2.51 Z1.26 F1800.0
G1 X20.99 Y2.09 Z1.26 F1800.0
G1 X-19.92 Y2.09 Z1.26 F1800.0
M103
G1 X-19.92 Y1.68 Z1.26 F1800.0
M101
G1 X20.99 Y1.68 Z1.26 F1800.0
G1 X20.99 Y1.26 Z1.26 F1800.0
G1 X-19.92 Y1.26 Z1.26 F1800.0
M103
G1 X-19.92 Y0.84 Z1.26 F1800.0
M101
G1 X20.99 Y0.84 Z1.26 F1800.0
G1 X20.99 Y0.42 Z1.26 F1800.0
G1 X-19.92 Y0.42 Z1.26 F1800.0
M103
G1 X-19.92 Y0.0 Z1.26 F1800.0
M101
G1 X20.99 Y-0.0 Z1.26 F1800.0
G1 X20.99 Y-0.42 Z1.26 F1800.0
G1 X-19.92 Y-0.42 Z1.26 F1800.0
M103
G1 X-19.92 Y-0.84 Z1.26 F1800.0
M101
G1 X20.99 Y-0.84 Z1.26 F1800.0
G1 X20.99 Y-1.26 Z1.26 F1800.0
G1 X-19.92 Y-1.26 Z1.26 F1800.0
M103
G1 X-19.92 Y-1.68 Z1.26 F1800.0
M101
G1 X20.99 Y-1.68 Z1.26 F1800.0
G1 X20.99 Y-2.09 Z1.26 F1800.0
G1 X-19.92 Y-2.09 Z1.26 F1800.0
M103
G1 X-19.92 Y-2.51 Z1.26 F1800.0
M101
G1 X20.99 Y-2.51 Z1.26 F1800.0
G1 X20.99 Y-2.93 Z1.26 F1800.0
G1 X-19.92 Y-2.93 Z1.26 F1800.0
M103
G1 X-19.92 Y-3.35 Z1.26 F1800.0
M101
G1 X20.99 Y-3.35 Z1.26 F1800.0
G1 X20.99 Y-3.77 Z1.26 F1800.0
G1 X-19.92 Y-3.77 Z1.26 F1800.0
M103
G1 X-19.92 Y-4.19 Z1.26 F1800.0
M101
G1 X20.99 Y-4.19 Z1.26 F1800.0
G1 X20.99 Y-4.61 Z1.26 F1800.0
G1 X-19.92 Y-4.61 Z1.26 F1800.0
M103
G1 X-19.92 Y-5.03 Z1.26 F1800.0
M101
G1 X20.99 Y-5.03 Z1.26 F1800.0
G1 X20.99 Y-5.45 Z1.26 F1800.0
G1 X-19.92 Y-5.45 Z1.26 F1800.0
M103
G1 X-19.92 Y-5.86 Z1.26 F1800.0
M101
G1 X20.99 Y-5.86 Z1.26 F1800.0
G1 X20.99 Y-6.28 Z1.26 F1800.0
G1 X-19.92 Y-6.28 Z1.26 F1800.0
M103
G1 X-19.92 Y-6.7 Z1.26 F1800.0
M101
G1 X20.99 Y-6.7 Z1.26 F1800.0
G1 X20.99 Y-7.12 Z1.26 F1800.0
G1 X-19.92 Y-7.12 Z1.26 F1800.0
M103
G1 X-19.92 Y-7.54 Z1.26 F1800.0
M101
G1 X20.99 Y-7.54 Z1.26 F1800.0
G1 X20.99 Y-7.96 Z1.26 F1800.0
G1 X-19.92 Y-7.96 Z1.26 F1800.0
M103
G1 X-19.92 Y-8.38 Z1.26 F1800.0
M101
G1 X20.99 Y-8.38 Z1.26 F1800.0
G1 X20.99 Y-8.8 Z1.26 F1800.0
G1 X-19.92 Y-8.8 Z1.26 F1800.0
M103
G1 X-19.92 Y-9.21 Z1.26 F1800.0
M101
G1 X20.99 Y-9.21 Z1.26 F1800.0
G1 X20.99 Y-9.63 Z1.26 F1800.0
G1 X-19.92 Y-9.63 Z1.26 F1800.0
M103
G1 X-19.92 Y-10.05 Z1.26 F1800.0
M101
G1 X20.99 Y-10.05 Z1.26 F1800.0
G1 X20.99 Y-10.47 Z1.26 F1800.0
G1 X-19.92 Y-10.47 Z1.26 F1800.0
M103
G1 X-19.92 Y-10.89 Z1.26 F1800.0
M101
G1 X20.99 Y-10.89 Z1.26 F1800.0
G1 X20.99 Y-11.31 Z1.26 F1800.0
G1 X-19.92 Y-11.31 Z1.26 F1800.0
M103
G1 X-19.92 Y-11.73 Z1.26 F1800.0
M101
G1 X20.99 Y-11.73 Z1.26 F1800.0
G1 X20.99 Y-12.15 Z1.26 F1800.0
G1 X-19.92 Y-12.15 Z1.26 F1800.0
M103
G1 X-19.92 Y-12.57 Z1.26 F1800.0
M101
G1 X20.99 Y-12.57 Z1.26 F1800.0
G1 X20.99 Y-12.98 Z1.26 F1800.0
G1 X-19.92 Y-12.98 Z1.26 F1800.0
M103
G1 X-19.92 Y-13.4 Z1.26 F1800.0
M101
G1 X20.99 Y-13.4 Z1.26 F1800.0
G1 X20.95 Y-13.82 Z1.26 F1800.0
G1 X-19.88 Y-13.82 Z1.26 F1800.0
M103
(</surroundingLoop>)
(</layer>)
(<operatingLayerEnd> </operatingLayerEnd>)
(<layer> 1.56 )
(<surroundingLoop>)
(<boundaryPerimeter>)
(<boundaryPoint> X-19.937 Y-14.944 Z1.56 </boundaryPoint>)
(<boundaryPoint> X21.008 Y-14.944 Z1.56 </boundaryPoint>)
(<boundaryPoint> X21.611 Y-14.782 Z1.56 </boundaryPoint>)
(<boundaryPoint> X22.039 Y-14.249 Z1.56 </boundaryPoint>)
(<boundaryPoint> X22.074 Y17.224 Z1.56 </boundaryPoint>)
(<boundaryPoint> X21.913 Y17.827 Z1.56 </boundaryPoint>)
(<boundaryPoint> X21.379 Y18.255 Z1.56 </boundaryPoint>)
(<boundaryPoint> X-20.299 Y18.26 Z1.56 </boundaryPoint>)
(<boundaryPoint> X-20.841 Y17.827 Z1.56 </boundaryPoint>)
(<boundaryPoint> X-21.002 Y17.224 Z1.56 </boundaryPoint>)
(<boundaryPoint> X-20.972 Y-14.242 Z1.56 </boundaryPoint>)
(<boundaryPoint> X-20.539 Y-14.782 Z1.56 </boundaryPoint>)
(<perimeter> outer )
M108 R0.5897
G1 X-20.76 Y-13.82 Z1.56 F1800.0
M101
G1 X-20.76 Y-14.17 Z1.56 F900.0
G1 X-20.42 Y-14.6 Z1.56 F900.0
G1 X-19.91 Y-14.73 Z1.56 F900.0
G1 X20.98 Y-14.73 Z1.56 F900.0
G1 X21.49 Y-14.6 Z1.56 F900.0
G1 X21.83 Y-14.18 Z1.56 F900.0
G1 X21.86 Y17.2 Z1.56 F900.0
G1 X21.73 Y17.71 Z1.56 F900.0
G1 X21.3 Y18.05 Z1.56 F900.0
G1 X-20.23 Y18.05 Z1.56 F900.0
G1 X-20.66 Y17.71 Z1.56 F900.0
G1 X-20.79 Y17.2 Z1.56 F900.0
G1 X-20.76 Y-13.82 Z1.56 F900.0
M103
(</perimeter>)
(</boundaryPerimeter>)
(<loop> outer )
M108 R1.179
G1 X-20.34 Y-14.02 Z1.56 F1800.0
M101
G1 X-20.18 Y-14.23 Z1.56 F1800.0
G1 X-19.85 Y-14.32 Z1.56 F1800.0
G1 X20.93 Y-14.32 Z1.56 F1800.0
G1 X21.25 Y-14.23 Z1.56 F1800.0
G1 X21.41 Y-14.03 Z1.56 F1800.0
G1 X21.45 Y17.14 Z1.56 F1800.0
G1 X21.36 Y17.47 Z1.56 F1800.0
G1 X21.16 Y17.63 Z1.56 F1800.0
G1 X-20.08 Y17.63 Z1.56 F1800.0
G1 X-20.29 Y17.46 Z1.56 F1800.0
G1 X-20.37 Y17.14 Z1.56 F1800.0
G1 X-20.34 Y-14.02 Z1.56 F1800.0
M103
(</loop>)
G1 X-16.29 Y-14.04 Z1.56 F1800.0
M101
G1 X-16.29 Y16.43 Z1.56 F1800.0
G1 X-14.43 Y17.36 Z1.56 F1800.0
G1 X-20.01 Y17.34 Z1.56 F1800.0
G1 X-20.01 Y-13.99 Z1.56 F1800.0
G1 X-19.55 Y-14.04 Z1.56 F1800.0
M103
G1 X-13.5 Y17.36 Z1.56 F1800.0
M101
G1 X-7.45 Y17.36 Z1.56 F1800.0
G1 X-11.64 Y11.77 Z1.56 F1800.0
G1 X-11.64 Y-14.04 Z1.56 F1800.0
M103
G1 X-6.98 Y-14.04 Z1.56 F1800.0
M101
G1 X-6.98 Y17.36 Z1.56 F1800.0
G1 X-2.79 Y17.36 Z1.56 F1800.0
M103
G1 X1.86 Y17.36 Z1.56 F1800.0
M101
G1 X-2.33 Y17.36 Z1.56 F1800.0
G1 X-2.33 Y-14.04 Z1.56 F1800.0
M103
G1 X6.98 Y-14.04 Z1.56 F1800.0
M101
G1 X6.98 Y11.77 Z1.56 F1800.0
G1 X10.71 Y17.36 Z1.56 F1800.0
G1 X2.33 Y17.36 Z1.56 F1800.0
G1 X2.33 Y-14.04 Z1.56 F1800.0
M103
G1 X11.64 Y-14.04 Z1.56 F1800.0
M101
G1 X11.64 Y16.43 Z1.56 F1800.0
G1 X13.96 Y16.89 Z1.56 F1800.0
G1 X15.36 Y16.89 Z1.56 F1800.0
G1 X14.89 Y17.36 Z1.56 F1800.0
G1 X11.17 Y17.36 Z1.56 F1800.0
M103
G1 X15.82 Y17.36 Z1.56 F1800.0
M101
G1 X20.01 Y17.35 Z1.56 F1800.0
G1 X16.29 Y11.77 Z1.56 F1800.0
G1 X16.29 Y-14.04 Z1.56 F1800.0
M103
G1 X20.94 Y-14.03 Z1.56 F1800.0
M101
G1 X20.94 Y17.35 Z1.56 F1800.0
G1 X20.48 Y17.35 Z1.56 F1800.0
M103
(</surroundingLoop>)
(</layer>)
(<layer> 1.86 )
(<surroundingLoop>)
(<boundaryPerimeter>)
(<boundaryPoint> X-19.937 Y-15.024 Z1.86 </boundaryPoint>)
(<boundaryPoint> X21.008 Y-15.024 Z1.86 </boundaryPoint>)
(<boundaryPoint> X21.599 Y-14.866 Z1.86 </boundaryPoint>)
(<boundaryPoint> X22.031 Y-14.433 Z1.86 </boundaryPoint>)
(<boundaryPoint> X22.149 Y-13.954 Z1.86 </boundaryPoint>)
(<boundaryPoint> X22.154 Y17.224 Z1.86 </boundaryPoint>)
(<boundaryPoint> X21.996 Y17.815 Z1.86 </boundaryPoint>)
(<boundaryPoint> X21.564 Y18.247 Z1.86 </boundaryPoint>)
(<boundaryPoint> X21.084 Y18.365 Z1.86 </boundaryPoint>)
(<boundaryPoint> X-20.012 Y18.365 Z1.86 </boundaryPoint>)
(<boundaryPoint> X-20.492 Y18.247 Z1.86 </boundaryPoint>)
(<boundaryPoint> X-20.924 Y17.815 Z1.86 </boundaryPoint>)
(<boundaryPoint> X-21.082 Y17.224 Z1.86 </boundaryPoint>)
(<boundaryPoint> X-21.077 Y-13.954 Z1.86 </boundaryPoint>)
(<boundaryPoint> X-20.959 Y-14.433 Z1.86 </boundaryPoint>)
(<boundaryPoint> X-20.527 Y-14.866 Z1.86 </boundaryPoint>)
(<perimeter> outer )
M108 R0.5897
G1 X20.48 Y18.16 Z1.86 F1800.0
M101
G1 X-19.99 Y18.16 Z1.86 F900.0
G1 X-20.39 Y18.06 Z1.86 F900.0
G1 X-20.74 Y17.71 Z1.86 F900.0
G1 X-20.87 Y17.2 Z1.86 F900.0
G1 X-20.87 Y-13.93 Z1.86 F900.0
G1 X-20.77 Y-14.33 Z1.86 F900.0
G1 X-20.42 Y-14.68 Z1.86 F900.0
G1 X-19.91 Y-14.81 Z1.86 F900.0
G1 X20.98 Y-14.81 Z1.86 F900.0
G1 X21.49 Y-14.68 Z1.86 F900.0
G1 X21.84 Y-14.33 Z1.86 F900.0
G1 X21.94 Y-13.93 Z1.86 F900.0
G1 X21.94 Y17.2 Z1.86 F900.0
G1 X21.81 Y17.71 Z1.86 F900.0
G1 X21.46 Y18.06 Z1.86 F900.0
G1 X21.06 Y18.16 Z1.86 F900.0
G1 X20.48 Y18.16 Z1.86 F900.0
M103
(</perimeter>)
(</boundaryPerimeter>)
(<loop> outer )
M108 R1.179
G1 X20.48 Y17.74 Z1.86 F1800.0
M101
G1 X-19.94 Y17.74 Z1.86 F1800.0
G1 X-20.17 Y17.68 Z1.86 F1800.0
G1 X-20.36 Y17.49 Z1.86 F1800.0
G1 X-20.45 Y17.14 Z1.86 F1800.0
G1 X-20.45 Y-13.88 Z1.86 F1800.0
G1 X-20.39 Y-14.11 Z1.86 F1800.0
G1 X-20.2 Y-14.3 Z1.86 F1800.0
G1 X-19.85 Y-14.4 Z1.86 F1800.0
G1 X20.93 Y-14.4 Z1.86 F1800.0
G1 X21.27 Y-14.3 Z1.86 F1800.0
G1 X21.46 Y-14.11 Z1.86 F1800.0
G1 X21.52 Y-13.88 Z1.86 F1800.0
G1 X21.53 Y17.14 Z1.86 F1800.0
G1 X21.43 Y17.49 Z1.86 F1800.0
G1 X21.24 Y17.68 Z1.86 F1800.0
G1 X21.01 Y17.74 Z1.86 F1800.0
G1 X20.48 Y17.74 Z1.86 F1800.0
M103
(</loop>)
G1 X21.25 Y-11.17 Z1.86 F1800.0
M101
G1 X21.25 Y-6.52 Z1.86 F1800.0
G1 X16.15 Y-7.1 Z1.86 F1800.0
G1 X11.77 Y-11.51 Z1.86 F1800.0
G1 X11.5 Y-11.51 Z1.86 F1800.0
G1 X7.12 Y-7.1 Z1.86 F1800.0
G1 X6.84 Y-7.1 Z1.86 F1800.0
G1 X2.46 Y-11.51 Z1.86 F1800.0
G1 X2.19 Y-11.51 Z1.86 F1800.0
G1 X-2.19 Y-7.1 Z1.86 F1800.0
G1 X-2.46 Y-7.1 Z1.86 F1800.0
G1 X-6.84 Y-11.51 Z1.86 F1800.0
G1 X-7.12 Y-11.51 Z1.86 F1800.0
G1 X-11.5 Y-7.1 Z1.86 F1800.0
G1 X-11.77 Y-7.1 Z1.86 F1800.0
G1 X-16.15 Y-11.51 Z1.86 F1800.0
G1 X-16.43 Y-11.51 Z1.86 F1800.0
G1 X-20.18 Y-6.52 Z1.86 F1800.0
G1 X-20.15 Y-13.96 Z1.86 F1800.0
G1 X-16.43 Y-11.76 Z1.86 F1800.0
G1 X21.25 Y-11.64 Z1.86 F1800.0
G1 X21.22 Y-13.96 Z1.86 F1800.0
M103
G1 X-20.18 Y2.33 Z1.86 F1800.0
M101
G1 X-20.18 Y-1.4 Z1.86 F1800.0
G1 X-16.43 Y-2.21 Z1.86 F1800.0
G1 X-16.15 Y-2.21 Z1.86 F1800.0
G1 X-11.77 Y2.21 Z1.86 F1800.0
G1 X-11.5 Y2.21 Z1.86 F1800.0
G1 X-7.12 Y-2.21 Z1.86 F1800.0
G1 X-6.84 Y-2.21 Z1.86 F1800.0
G1 X-2.46 Y2.21 Z1.86 F1800.0
G1 X-2.19 Y2.21 Z1.86 F1800.0
G1 X2.19 Y-2.21 Z1.86 F1800.0
G1 X2.46 Y-2.21 Z1.86 F1800.0
G1 X6.84 Y2.21 Z1.86 F1800.0
G1 X7.12 Y2.21 Z1.86 F1800.0
G1 X11.5 Y-2.21 Z1.86 F1800.0
G1 X11.77 Y-2.21 Z1.86 F1800.0
G1 X16.15 Y2.21 Z1.86 F1800.0
G1 X21.25 Y2.33 Z1.86 F1800.0
G1 X21.25 Y-6.05 Z1.86 F1800.0
G1 X16.43 Y-6.86 Z1.86 F1800.0
G1 X16.15 Y-6.86 Z1.86 F1800.0
G1 X11.77 Y-2.45 Z1.86 F1800.0
G1 X11.5 Y-2.45 Z1.86 F1800.0
G1 X7.12 Y-6.86 Z1.86 F1800.0
G1 X6.84 Y-6.86 Z1.86 F1800.0
G1 X2.46 Y-2.45 Z1.86 F1800.0
G1 X2.19 Y-2.45 Z1.86 F1800.0
G1 X-2.19 Y-6.86 Z1.86 F1800.0
G1 X-2.46 Y-6.86 Z1.86 F1800.0
G1 X-6.84 Y-2.45 Z1.86 F1800.0
G1 X-7.12 Y-2.45 Z1.86 F1800.0
G1 X-11.5 Y-6.86 Z1.86 F1800.0
G1 X-11.77 Y-6.86 Z1.86 F1800.0
G1 X-16.15 Y-2.45 Z1.86 F1800.0
G1 X-16.43 Y-2.45 Z1.86 F1800.0
G1 X-20.18 Y-1.86 Z1.86 F1800.0
G1 X-20.18 Y-6.05 Z1.86 F1800.0
M103
G1 X-20.18 Y11.64 Z1.86 F1800.0
M101
G1 X-20.18 Y7.45 Z1.86 F1800.0
G1 X-16.15 Y7.1 Z1.86 F1800.0
G1 X-11.77 Y11.51 Z1.86 F1800.0
G1 X-11.5 Y11.51 Z1.86 F1800.0
G1 X-7.12 Y7.1 Z1.86 F1800.0
G1 X-6.84 Y7.1 Z1.86 F1800.0
G1 X-2.46 Y11.51 Z1.86 F1800.0
G1 X-2.19 Y11.51 Z1.86 F1800.0
G1 X2.19 Y7.1 Z1.86 F1800.0
G1 X2.46 Y7.1 Z1.86 F1800.0
G1 X6.84 Y11.51 Z1.86 F1800.0
G1 X7.12 Y11.51 Z1.86 F1800.0
G1 X11.5 Y7.1 Z1.86 F1800.0
G1 X11.77 Y7.1 Z1.86 F1800.0
G1 X16.15 Y11.51 Z1.86 F1800.0
G1 X21.25 Y11.64 Z1.86 F1800.0
G1 X21.25 Y2.79 Z1.86 F1800.0
G1 X16.15 Y2.45 Z1.86 F1800.0
G1 X11.77 Y6.86 Z1.86 F1800.0
G1 X11.5 Y6.86 Z1.86 F1800.0
G1 X7.12 Y2.45 Z1.86 F1800.0
G1 X6.84 Y2.45 Z1.86 F1800.0
G1 X2.46 Y6.86 Z1.86 F1800.0
G1 X2.19 Y6.86 Z1.86 F1800.0
G1 X-2.19 Y2.45 Z1.86 F1800.0
G1 X-2.46 Y2.45 Z1.86 F1800.0
G1 X-6.84 Y6.86 Z1.86 F1800.0
G1 X-7.12 Y6.86 Z1.86 F1800.0
G1 X-11.5 Y2.45 Z1.86 F1800.0
G1 X-11.77 Y2.45 Z1.86 F1800.0
G1 X-16.15 Y6.86 Z1.86 F1800.0
G1 X-20.18 Y6.98 Z1.86 F1800.0
G1 X-20.18 Y2.79 Z1.86 F1800.0
M103
G1 X-20.15 Y17.22 Z1.86 F1800.0
M101
G1 X-16.43 Y16.41 Z1.86 F1800.0
G1 X11.77 Y16.41 Z1.86 F1800.0
G1 X21.22 Y17.22 Z1.86 F1800.0
G1 X21.25 Y12.1 Z1.86 F1800.0
G1 X16.15 Y11.76 Z1.86 F1800.0
G1 X11.77 Y16.17 Z1.86 F1800.0
G1 X11.5 Y16.17 Z1.86 F1800.0
G1 X7.12 Y11.76 Z1.86 F1800.0
G1 X6.84 Y11.76 Z1.86 F1800.0
G1 X2.46 Y16.17 Z1.86 F1800.0
G1 X2.19 Y16.17 Z1.86 F1800.0
G1 X-2.19 Y11.76 Z1.86 F1800.0
G1 X-11.77 Y11.76 Z1.86 F1800.0
G1 X-16.15 Y16.17 Z1.86 F1800.0
G1 X-20.18 Y16.75 Z1.86 F1800.0
G1 X-20.18 Y12.1 Z1.86 F1800.0
M103
(</surroundingLoop>)
(</layer>)
(<layer> 2.16 )
(<surroundingLoop>)
(<boundaryPerimeter>)
(<boundaryPoint> X21.599 Y-14.901 Z2.16 </boundaryPoint>)
(<boundaryPoint> X22.031 Y-14.469 Z2.16 </boundaryPoint>)
(<boundaryPoint> X22.189 Y-13.878 Z2.16 </boundaryPoint>)
(<boundaryPoint> X22.189 Y17.224 Z2.16 </boundaryPoint>)
(<boundaryPoint> X22.031 Y17.815 Z2.16 </boundaryPoint>)
(<boundaryPoint> X21.599 Y18.247 Z2.16 </boundaryPoint>)
(<boundaryPoint> X21.008 Y18.406 Z2.16 </boundaryPoint>)
(<boundaryPoint> X-19.937 Y18.406 Z2.16 </boundaryPoint>)
(<boundaryPoint> X-20.527 Y18.247 Z2.16 </boundaryPoint>)
(<boundaryPoint> X-20.959 Y17.815 Z2.16 </boundaryPoint>)
(<boundaryPoint> X-21.118 Y17.224 Z2.16 </boundaryPoint>)
(<boundaryPoint> X-21.118 Y-13.878 Z2.16 </boundaryPoint>)
(<boundaryPoint> X-20.959 Y-14.469 Z2.16 </boundaryPoint>)
(<boundaryPoint> X-20.527 Y-14.901 Z2.16 </boundaryPoint>)
(<boundaryPoint> X-19.937 Y-15.059 Z2.16 </boundaryPoint>)
(<boundaryPoint> X21.008 Y-15.059 Z2.16 </boundaryPoint>)
(<perimeter> outer )
M108 R0.5897
G1 X-20.91 Y12.1 Z2.16 F1800.0
M101
G1 X-20.91 Y-13.85 Z2.16 F900.0
G1 X-20.77 Y-14.36 Z2.16 F900.0
G1 X-20.42 Y-14.71 Z2.16 F900.0
G1 X-19.91 Y-14.85 Z2.16 F900.0
G1 X20.98 Y-14.85 Z2.16 F900.0
G1 X21.49 Y-14.71 Z2.16 F900.0
G1 X21.84 Y-14.36 Z2.16 F900.0
G1 X21.98 Y-13.85 Z2.16 F900.0
G1 X21.98 Y17.2 Z2.16 F900.0
G1 X21.84 Y17.71 Z2.16 F900.0
G1 X21.49 Y18.06 Z2.16 F900.0
G1 X20.98 Y18.2 Z2.16 F900.0
G1 X-19.91 Y18.2 Z2.16 F900.0
G1 X-20.42 Y18.06 Z2.16 F900.0
G1 X-20.77 Y17.71 Z2.16 F900.0
G1 X-20.91 Y17.2 Z2.16 F900.0
G1 X-20.91 Y12.1 Z2.16 F900.0
M103
(</perimeter>)
(</boundaryPerimeter>)
(<loop> outer )
M108 R1.179
G1 X-20.49 Y12.1 Z2.16 F1800.0
M101
G1 X-20.49 Y-13.79 Z2.16 F1800.0
G1 X-20.4 Y-14.14 Z2.16 F1800.0
G1 X-20.2 Y-14.34 Z2.16 F1800.0
G1 X-19.85 Y-14.43 Z2.16 F1800.0
G1 X20.93 Y-14.43 Z2.16 F1800.0
G1 X21.27 Y-14.34 Z2.16 F1800.0
G1 X21.47 Y-14.14 Z2.16 F1800.0
G1 X21.56 Y-13.79 Z2.16 F1800.0
G1 X21.56 Y17.14 Z2.16 F1800.0
G1 X21.47 Y17.49 Z2.16 F1800.0
G1 X21.27 Y17.68 Z2.16 F1800.0
G1 X20.93 Y17.78 Z2.16 F1800.0
G1 X-19.85 Y17.78 Z2.16 F1800.0
G1 X-20.2 Y17.68 Z2.16 F1800.0
G1 X-20.4 Y17.49 Z2.16 F1800.0
G1 X-20.49 Y17.14 Z2.16 F1800.0
G1 X-20.49 Y12.1 Z2.16 F1800.0
M103
(</loop>)
G1 X-20.01 Y17.45 Z2.16 F1800.0
M101
G1 X-19.5 Y17.04 Z2.16 F1800.0
G1 X-19.08 Y17.5 Z2.16 F1800.0
G1 X-18.62 Y17.04 Z2.16 F1800.0
G1 X-18.15 Y17.5 Z2.16 F1800.0
G1 X-17.69 Y17.04 Z2.16 F1800.0
G1 X-17.22 Y17.5 Z2.16 F1800.0
G1 X-16.75 Y17.04 Z2.16 F1800.0
G1 X-16.41 Y16.43 Z2.16 F1800.0
G1 X-16.41 Y-11.77 Z2.16 F1800.0
G1 X-16.75 Y-13.69 Z2.16 F1800.0
G1 X-17.22 Y-14.16 Z2.16 F1800.0
G1 X-17.69 Y-13.69 Z2.16 F1800.0
G1 X-18.15 Y-14.16 Z2.16 F1800.0
G1 X-18.62 Y-13.69 Z2.16 F1800.0
G1 X-19.08 Y-14.16 Z2.16 F1800.0
G1 X-19.5 Y-13.7 Z2.16 F1800.0
G1 X-20.01 Y-14.11 Z2.16 F1800.0
M103
G1 X-15.82 Y-14.16 Z2.16 F1800.0
M101
G1 X-16.29 Y-13.69 Z2.16 F1800.0
G1 X-16.17 Y-11.5 Z2.16 F1800.0
G1 X-11.76 Y-7.12 Z2.16 F1800.0
G1 X-11.76 Y-6.84 Z2.16 F1800.0
G1 X-16.17 Y-2.46 Z2.16 F1800.0
G1 X-16.17 Y-2.19 Z2.16 F1800.0
G1 X-11.76 Y2.19 Z2.16 F1800.0
G1 X-11.76 Y2.46 Z2.16 F1800.0
G1 X-16.17 Y6.84 Z2.16 F1800.0
G1 X-16.17 Y7.12 Z2.16 F1800.0
G1 X-11.76 Y11.5 Z2.16 F1800.0
G1 X-11.76 Y11.77 Z2.16 F1800.0
G1 X-16.17 Y16.15 Z2.16 F1800.0
G1 X-16.17 Y16.43 Z2.16 F1800.0
G1 X-16.29 Y17.04 Z2.16 F1800.0
G1 X-15.82 Y17.5 Z2.16 F1800.0
M103
G1 X-11.17 Y17.5 Z2.16 F1800.0
M101
G1 X-10.71 Y17.04 Z2.16 F1800.0
G1 X-10.24 Y17.5 Z2.16 F1800.0
G1 X-9.77 Y17.04 Z2.16 F1800.0
G1 X-9.31 Y17.5 Z2.16 F1800.0
G1 X-8.84 Y17.04 Z2.16 F1800.0
G1 X-8.38 Y17.5 Z2.16 F1800.0
G1 X-7.91 Y17.04 Z2.16 F1800.0
G1 X-7.45 Y17.5 Z2.16 F1800.0
G1 X-6.98 Y17.04 Z2.16 F1800.0
G1 X-7.1 Y16.43 Z2.16 F1800.0
G1 X-7.1 Y16.15 Z2.16 F1800.0
G1 X-11.51 Y11.77 Z2.16 F1800.0
G1 X-11.51 Y11.5 Z2.16 F1800.0
G1 X-7.1 Y7.12 Z2.16 F1800.0
G1 X-7.1 Y6.84 Z2.16 F1800.0
G1 X-11.51 Y2.46 Z2.16 F1800.0
G1 X-11.51 Y2.19 Z2.16 F1800.0
G1 X-7.1 Y-2.19 Z2.16 F1800.0
G1 X-7.1 Y-2.46 Z2.16 F1800.0
G1 X-11.51 Y-6.84 Z2.16 F1800.0
G1 X-11.51 Y-7.12 Z2.16 F1800.0
G1 X-7.1 Y-11.5 Z2.16 F1800.0
G1 X-7.1 Y-11.77 Z2.16 F1800.0
G1 X-7.91 Y-13.69 Z2.16 F1800.0
G1 X-8.38 Y-14.16 Z2.16 F1800.0
G1 X-8.84 Y-13.69 Z2.16 F1800.0
G1 X-9.31 Y-14.16 Z2.16 F1800.0
G1 X-9.77 Y-13.69 Z2.16 F1800.0
G1 X-10.24 Y-14.16 Z2.16 F1800.0
G1 X-10.71 Y-13.69 Z2.16 F1800.0
G1 X-11.17 Y-14.16 Z2.16 F1800.0
M103
G1 X-6.52 Y-14.16 Z2.16 F1800.0
M101
G1 X-6.98 Y-13.69 Z2.16 F1800.0
G1 X-6.86 Y-11.5 Z2.16 F1800.0
G1 X-2.45 Y-7.12 Z2.16 F1800.0
G1 X-2.45 Y-6.84 Z2.16 F1800.0
G1 X-6.86 Y-2.46 Z2.16 F1800.0
G1 X-6.86 Y-2.19 Z2.16 F1800.0
G1 X-2.45 Y2.19 Z2.16 F1800.0
G1 X-2.45 Y2.46 Z2.16 F1800.0
G1 X-6.86 Y6.84 Z2.16 F1800.0
G1 X-6.86 Y7.12 Z2.16 F1800.0
G1 X-2.45 Y11.5 Z2.16 F1800.0
G1 X-2.45 Y11.77 Z2.16 F1800.0
G1 X-6.86 Y16.15 Z2.16 F1800.0
G1 X-6.86 Y16.43 Z2.16 F1800.0
G1 X-6.52 Y17.5 Z2.16 F1800.0
M103
G1 X-1.86 Y17.5 Z2.16 F1800.0
M101
G1 X-1.4 Y17.04 Z2.16 F1800.0
G1 X-0.93 Y17.5 Z2.16 F1800.0
G1 X-0.47 Y17.04 Z2.16 F1800.0
G1 X0.0 Y17.5 Z2.16 F1800.0
G1 X0.47 Y17.04 Z2.16 F1800.0
G1 X0.93 Y17.5 Z2.16 F1800.0
G1 X1.4 Y17.04 Z2.16 F1800.0
G1 X1.86 Y17.5 Z2.16 F1800.0
G1 X2.33 Y17.04 Z2.16 F1800.0
G1 X2.21 Y16.43 Z2.16 F1800.0
G1 X2.21 Y16.15 Z2.16 F1800.0
G1 X-2.21 Y11.77 Z2.16 F1800.0
G1 X-2.21 Y11.5 Z2.16 F1800.0
G1 X2.21 Y7.12 Z2.16 F1800.0
G1 X2.21 Y6.84 Z2.16 F1800.0
G1 X-2.21 Y2.46 Z2.16 F1800.0
G1 X-2.21 Y2.19 Z2.16 F1800.0
G1 X2.21 Y-2.19 Z2.16 F1800.0
G1 X2.21 Y-2.46 Z2.16 F1800.0
G1 X-2.21 Y-6.84 Z2.16 F1800.0
G1 X-2.21 Y-7.12 Z2.16 F1800.0
G1 X2.21 Y-11.5 Z2.16 F1800.0
G1 X2.21 Y-11.77 Z2.16 F1800.0
G1 X1.4 Y-13.69 Z2.16 F1800.0
G1 X0.93 Y-14.16 Z2.16 F1800.0
G1 X0.47 Y-13.69 Z2.16 F1800.0
G1 X-0.0 Y-14.16 Z2.16 F1800.0
G1 X-0.47 Y-13.69 Z2.16 F1800.0
G1 X-0.93 Y-14.16 Z2.16 F1800.0
G1 X-1.4 Y-13.69 Z2.16 F1800.0
G1 X-1.86 Y-14.16 Z2.16 F1800.0
M103
G1 X2.79 Y-14.16 Z2.16 F1800.0
M101
G1 X2.33 Y-13.69 Z2.16 F1800.0
G1 X2.45 Y-11.5 Z2.16 F1800.0
G1 X6.86 Y-7.12 Z2.16 F1800.0
G1 X6.86 Y-6.84 Z2.16 F1800.0
G1 X2.45 Y-2.46 Z2.16 F1800.0
G1 X2.45 Y-2.19 Z2.16 F1800.0
G1 X6.86 Y2.19 Z2.16 F1800.0
G1 X6.86 Y2.46 Z2.16 F1800.0
G1 X2.45 Y6.84 Z2.16 F1800.0
G1 X2.45 Y7.12 Z2.16 F1800.0
G1 X6.86 Y11.5 Z2.16 F1800.0
G1 X6.86 Y11.77 Z2.16 F1800.0
G1 X2.45 Y16.15 Z2.16 F1800.0
G1 X2.45 Y16.43 Z2.16 F1800.0
G1 X2.79 Y17.5 Z2.16 F1800.0
M103
G1 X7.45 Y17.5 Z2.16 F1800.0
M101
G1 X7.91 Y17.04 Z2.16 F1800.0
G1 X8.38 Y17.5 Z2.16 F1800.0
G1 X8.84 Y17.04 Z2.16 F1800.0
G1 X9.31 Y17.5 Z2.16 F1800.0
G1 X9.77 Y17.04 Z2.16 F1800.0
G1 X10.24 Y17.5 Z2.16 F1800.0
G1 X10.71 Y17.04 Z2.16 F1800.0
G1 X11.17 Y17.5 Z2.16 F1800.0
G1 X11.51 Y16.43 Z2.16 F1800.0
G1 X11.51 Y16.15 Z2.16 F1800.0
G1 X7.1 Y11.77 Z2.16 F1800.0
G1 X7.1 Y11.5 Z2.16 F1800.0
G1 X11.51 Y7.12 Z2.16 F1800.0
G1 X11.51 Y6.84 Z2.16 F1800.0
G1 X7.1 Y2.46 Z2.16 F1800.0
G1 X7.1 Y2.19 Z2.16 F1800.0
G1 X11.51 Y-2.19 Z2.16 F1800.0
G1 X11.51 Y-2.46 Z2.16 F1800.0
G1 X7.1 Y-6.84 Z2.16 F1800.0
G1 X7.1 Y-7.12 Z2.16 F1800.0
G1 X11.51 Y-11.5 Z2.16 F1800.0
G1 X11.51 Y-11.77 Z2.16 F1800.0
G1 X10.71 Y-13.69 Z2.16 F1800.0
G1 X10.24 Y-14.16 Z2.16 F1800.0
G1 X9.77 Y-13.69 Z2.16 F1800.0
G1 X9.31 Y-14.16 Z2.16 F1800.0
G1 X8.84 Y-13.69 Z2.16 F1800.0
G1 X8.38 Y-14.16 Z2.16 F1800.0
G1 X7.91 Y-13.69 Z2.16 F1800.0
G1 X7.45 Y-14.16 Z2.16 F1800.0
M103
G1 X12.1 Y-14.16 Z2.16 F1800.0
M101
G1 X11.64 Y-13.69 Z2.16 F1800.0
G1 X11.76 Y-11.5 Z2.16 F1800.0
G1 X16.17 Y-7.12 Z2.16 F1800.0
G1 X16.17 Y-6.84 Z2.16 F1800.0
G1 X11.76 Y-2.46 Z2.16 F1800.0
G1 X11.76 Y-2.19 Z2.16 F1800.0
G1 X16.17 Y2.19 Z2.16 F1800.0
G1 X16.17 Y2.46 Z2.16 F1800.0
G1 X11.76 Y6.84 Z2.16 F1800.0
G1 X11.76 Y7.12 Z2.16 F1800.0
G1 X16.17 Y11.5 Z2.16 F1800.0
G1 X16.17 Y11.77 Z2.16 F1800.0
G1 X11.76 Y16.15 Z2.16 F1800.0
G1 X11.76 Y16.43 Z2.16 F1800.0
G1 X11.64 Y17.04 Z2.16 F1800.0
G1 X12.1 Y17.5 Z2.16 F1800.0
M103
G1 X16.75 Y17.5 Z2.16 F1800.0
M101
G1 X16.29 Y17.04 Z2.16 F1800.0
G1 X16.29 Y-13.69 Z2.16 F1800.0
G1 X16.75 Y-14.16 Z2.16 F1800.0
M103
G1 X20.94 Y-14.14 Z2.16 F1800.0
M101
G1 X20.94 Y17.49 Z2.16 F1800.0
M103
(</surroundingLoop>)
(</layer>)
(<layer> 2.46 )
(<surroundingLoop>)
(<boundaryPerimeter>)
(<boundaryPoint> X21.599 Y-14.901 Z2.46 </boundaryPoint>)
(<boundaryPoint> X22.031 Y-14.469 Z2.46 </boundaryPoint>)
(<boundaryPoint> X22.189 Y-13.878 Z2.46 </boundaryPoint>)
(<boundaryPoint> X22.189 Y17.224 Z2.46 </boundaryPoint>)
(<boundaryPoint> X22.031 Y17.815 Z2.46 </boundaryPoint>)
(<boundaryPoint> X21.599 Y18.247 Z2.46 </boundaryPoint>)
(<boundaryPoint> X21.008 Y18.406 Z2.46 </boundaryPoint>)
(<boundaryPoint> X-19.937 Y18.406 Z2.46 </boundaryPoint>)
(<boundaryPoint> X-20.527 Y18.247 Z2.46 </boundaryPoint>)
(<boundaryPoint> X-20.959 Y17.815 Z2.46 </boundaryPoint>)
(<boundaryPoint> X-21.118 Y17.224 Z2.46 </boundaryPoint>)
(<boundaryPoint> X-21.118 Y-13.878 Z2.46 </boundaryPoint>)
(<boundaryPoint> X-20.959 Y-14.469 Z2.46 </boundaryPoint>)
(<boundaryPoint> X-20.527 Y-14.901 Z2.46 </boundaryPoint>)
(<boundaryPoint> X-19.937 Y-15.059 Z2.46 </boundaryPoint>)
(<boundaryPoint> X21.008 Y-15.059 Z2.46 </boundaryPoint>)
(<perimeter> outer )
M108 R0.5897
G1 X20.98 Y18.2 Z2.46 F1800.0
M101
G1 X-19.91 Y18.2 Z2.46 F900.0
G1 X-20.42 Y18.06 Z2.46 F900.0
G1 X-20.77 Y17.71 Z2.46 F900.0
G1 X-20.91 Y17.2 Z2.46 F900.0
G1 X-20.91 Y-13.85 Z2.46 F900.0
G1 X-20.77 Y-14.36 Z2.46 F900.0
G1 X-20.42 Y-14.71 Z2.46 F900.0
G1 X-19.91 Y-14.85 Z2.46 F900.0
G1 X20.98 Y-14.85 Z2.46 F900.0
G1 X21.49 Y-14.71 Z2.46 F900.0
G1 X21.84 Y-14.36 Z2.46 F900.0
G1 X21.98 Y-13.85 Z2.46 F900.0
G1 X21.98 Y17.2 Z2.46 F900.0
G1 X21.84 Y17.71 Z2.46 F900.0
G1 X21.49 Y18.06 Z2.46 F900.0
G1 X20.98 Y18.2 Z2.46 F900.0
M103
(</perimeter>)
(</boundaryPerimeter>)
(<loop> outer )
M108 R1.179
G1 X20.93 Y17.78 Z2.46 F1800.0
M101
G1 X-19.85 Y17.78 Z2.46 F1800.0
G1 X-20.2 Y17.68 Z2.46 F1800.0
G1 X-20.4 Y17.49 Z2.46 F1800.0
G1 X-20.49 Y17.14 Z2.46 F1800.0
G1 X-20.49 Y-13.79 Z2.46 F1800.0
G1 X-20.4 Y-14.14 Z2.46 F1800.0
G1 X-20.2 Y-14.34 Z2.46 F1800.0
G1 X-19.85 Y-14.43 Z2.46 F1800.0
G1 X20.93 Y-14.43 Z2.46 F1800.0
G1 X21.27 Y-14.34 Z2.46 F1800.0
G1 X21.47 Y-14.14 Z2.46 F1800.0
G1 X21.56 Y-13.79 Z2.46 F1800.0
G1 X21.56 Y17.14 Z2.46 F1800.0
G1 X21.47 Y17.49 Z2.46 F1800.0
G1 X21.27 Y17.68 Z2.46 F1800.0
G1 X20.93 Y17.78 Z2.46 F1800.0
M103
(</loop>)
G1 X21.27 Y17.17 Z2.46 F1800.0
M101
G1 X-20.2 Y17.17 Z2.46 F1800.0
M103
G1 X-20.22 Y16.34 Z2.46 F1800.0
M101
G1 X21.29 Y16.34 Z2.46 F1800.0
M103
G1 X21.29 Y15.92 Z2.46 F1800.0
M101
G1 X-20.22 Y15.92 Z2.46 F1800.0
M103
G1 X-20.22 Y15.5 Z2.46 F1800.0
M101
G1 X21.29 Y15.5 Z2.46 F1800.0
M103
G1 X21.29 Y15.08 Z2.46 F1800.0
M101
G1 X-20.22 Y15.08 Z2.46 F1800.0
M103
G1 X-20.22 Y14.66 Z2.46 F1800.0
M101
G1 X21.29 Y14.66 Z2.46 F1800.0
M103
G1 X21.29 Y14.24 Z2.46 F1800.0
M101
G1 X-20.22 Y14.24 Z2.46 F1800.0
M103
G1 X-20.22 Y13.82 Z2.46 F1800.0
M101
G1 X21.29 Y13.82 Z2.46 F1800.0
M103
G1 X21.29 Y13.4 Z2.46 F1800.0
M101
G1 X-20.22 Y13.4 Z2.46 F1800.0
M103
G1 X-20.22 Y12.98 Z2.46 F1800.0
M101
G1 X21.29 Y12.98 Z2.46 F1800.0
M103
G1 X21.29 Y12.57 Z2.46 F1800.0
M101
G1 X-20.22 Y12.57 Z2.46 F1800.0
M103
G1 X-20.22 Y12.15 Z2.46 F1800.0
M101
G1 X21.29 Y12.15 Z2.46 F1800.0
M103
G1 X21.29 Y11.73 Z2.46 F1800.0
M101
G1 X-20.22 Y11.73 Z2.46 F1800.0
M103
G1 X-20.22 Y11.31 Z2.46 F1800.0
M101
G1 X21.29 Y11.31 Z2.46 F1800.0
M103
G1 X21.29 Y10.89 Z2.46 F1800.0
M101
G1 X-20.22 Y10.89 Z2.46 F1800.0
M103
G1 X-20.22 Y10.47 Z2.46 F1800.0
M101
G1 X21.29 Y10.47 Z2.46 F1800.0
M103
G1 X21.29 Y10.05 Z2.46 F1800.0
M101
G1 X-20.22 Y10.05 Z2.46 F1800.0
M103
G1 X-20.22 Y9.63 Z2.46 F1800.0
M101
G1 X21.29 Y9.63 Z2.46 F1800.0
M103
G1 X21.29 Y9.21 Z2.46 F1800.0
M101
G1 X-20.22 Y9.21 Z2.46 F1800.0
M103
G1 X-20.22 Y8.8 Z2.46 F1800.0
M101
G1 X21.29 Y8.8 Z2.46 F1800.0
M103
G1 X21.29 Y8.38 Z2.46 F1800.0
M101
G1 X-20.22 Y8.38 Z2.46 F1800.0
M103
G1 X-20.22 Y7.96 Z2.46 F1800.0
M101
G1 X21.29 Y7.96 Z2.46 F1800.0
M103
G1 X21.29 Y7.54 Z2.46 F1800.0
M101
G1 X-20.22 Y7.54 Z2.46 F1800.0
M103
G1 X-20.22 Y7.12 Z2.46 F1800.0
M101
G1 X21.29 Y7.12 Z2.46 F1800.0
M103
G1 X21.29 Y6.7 Z2.46 F1800.0
M101
G1 X-20.22 Y6.7 Z2.46 F1800.0
M103
G1 X-20.22 Y6.28 Z2.46 F1800.0
M101
G1 X21.29 Y6.28 Z2.46 F1800.0
M103
G1 X21.29 Y5.86 Z2.46 F1800.0
M101
G1 X-20.22 Y5.86 Z2.46 F1800.0
M103
G1 X-20.22 Y5.45 Z2.46 F1800.0
M101
G1 X21.29 Y5.45 Z2.46 F1800.0
M103
G1 X21.29 Y5.03 Z2.46 F1800.0
M101
G1 X-20.22 Y5.03 Z2.46 F1800.0
M103
G1 X-20.22 Y4.61 Z2.46 F1800.0
M101
G1 X21.29 Y4.61 Z2.46 F1800.0
M103
G1 X21.29 Y4.19 Z2.46 F1800.0
M101
G1 X-20.22 Y4.19 Z2.46 F1800.0
M103
G1 X-20.22 Y3.77 Z2.46 F1800.0
M101
G1 X21.29 Y3.77 Z2.46 F1800.0
M103
G1 X21.29 Y3.35 Z2.46 F1800.0
M101
G1 X-20.22 Y3.35 Z2.46 F1800.0
M103
G1 X-20.22 Y2.93 Z2.46 F1800.0
M101
G1 X21.29 Y2.93 Z2.46 F1800.0
M103
G1 X21.29 Y2.51 Z2.46 F1800.0
M101
G1 X-20.22 Y2.51 Z2.46 F1800.0
M103
G1 X-20.22 Y2.09 Z2.46 F1800.0
M101
G1 X21.29 Y2.09 Z2.46 F1800.0
M103
G1 X21.29 Y1.68 Z2.46 F1800.0
M101
G1 X-20.22 Y1.68 Z2.46 F1800.0
M103
G1 X-20.22 Y1.26 Z2.46 F1800.0
M101
G1 X21.29 Y1.26 Z2.46 F1800.0
M103
G1 X21.29 Y0.84 Z2.46 F1800.0
M101
G1 X-20.22 Y0.84 Z2.46 F1800.0
M103
G1 X-20.22 Y0.42 Z2.46 F1800.0
M101
G1 X21.29 Y0.42 Z2.46 F1800.0
M103
G1 X21.29 Y-0.0 Z2.46 F1800.0
M101
G1 X-20.22 Y0.0 Z2.46 F1800.0
M103
G1 X-20.22 Y-0.42 Z2.46 F1800.0
M101
G1 X21.29 Y-0.42 Z2.46 F1800.0
M103
G1 X21.29 Y-0.84 Z2.46 F1800.0
M101
G1 X-20.22 Y-0.84 Z2.46 F1800.0
M103
G1 X-20.22 Y-1.26 Z2.46 F1800.0
M101
G1 X21.29 Y-1.26 Z2.46 F1800.0
M103
G1 X21.29 Y-1.68 Z2.46 F1800.0
M101
G1 X-20.22 Y-1.68 Z2.46 F1800.0
M103
G1 X-20.22 Y-2.09 Z2.46 F1800.0
M101
G1 X21.29 Y-2.09 Z2.46 F1800.0
M103
G1 X21.29 Y-2.51 Z2.46 F1800.0
M101
G1 X-20.22 Y-2.51 Z2.46 F1800.0
M103
G1 X-20.22 Y-2.93 Z2.46 F1800.0
M101
G1 X21.29 Y-2.93 Z2.46 F1800.0
M103
G1 X21.29 Y-3.35 Z2.46 F1800.0
M101
G1 X-20.22 Y-3.35 Z2.46 F1800.0
M103
G1 X-20.22 Y-3.77 Z2.46 F1800.0
M101
G1 X21.29 Y-3.77 Z2.46 F1800.0
M103
G1 X21.29 Y-4.19 Z2.46 F1800.0
M101
G1 X-20.22 Y-4.19 Z2.46 F1800.0
M103
G1 X-20.22 Y-4.61 Z2.46 F1800.0
M101
G1 X21.29 Y-4.61 Z2.46 F1800.0
M103
G1 X21.29 Y-5.03 Z2.46 F1800.0
M101
G1 X-20.22 Y-5.03 Z2.46 F1800.0
M103
G1 X-20.22 Y-5.45 Z2.46 F1800.0
M101
G1 X21.29 Y-5.45 Z2.46 F1800.0
M103
G1 X21.29 Y-5.86 Z2.46 F1800.0
M101
G1 X-20.22 Y-5.86 Z2.46 F1800.0
M103
G1 X-20.22 Y-6.28 Z2.46 F1800.0
M101
G1 X21.29 Y-6.28 Z2.46 F1800.0
M103
G1 X21.29 Y-6.7 Z2.46 F1800.0
M101
G1 X-20.22 Y-6.7 Z2.46 F1800.0
M103
G1 X-20.22 Y-7.12 Z2.46 F1800.0
M101
G1 X21.29 Y-7.12 Z2.46 F1800.0
M103
G1 X21.29 Y-7.54 Z2.46 F1800.0
M101
G1 X-20.22 Y-7.54 Z2.46 F1800.0
M103
G1 X-20.22 Y-7.96 Z2.46 F1800.0
M101
G1 X21.29 Y-7.96 Z2.46 F1800.0
M103
G1 X21.29 Y-8.38 Z2.46 F1800.0
M101
G1 X-20.22 Y-8.38 Z2.46 F1800.0
M103
G1 X-20.22 Y-8.8 Z2.46 F1800.0
M101
G1 X21.29 Y-8.8 Z2.46 F1800.0
M103
G1 X21.29 Y-9.21 Z2.46 F1800.0
M101
G1 X-20.22 Y-9.21 Z2.46 F1800.0
M103
G1 X-20.22 Y-9.63 Z2.46 F1800.0
M101
G1 X21.29 Y-9.63 Z2.46 F1800.0
M103
G1 X21.29 Y-10.05 Z2.46 F1800.0
M101
G1 X-20.22 Y-10.05 Z2.46 F1800.0
M103
G1 X-20.22 Y-10.47 Z2.46 F1800.0
M101
G1 X21.29 Y-10.47 Z2.46 F1800.0
M103
G1 X21.29 Y-10.89 Z2.46 F1800.0
M101
G1 X-20.22 Y-10.89 Z2.46 F1800.0
M103
G1 X-20.22 Y-11.31 Z2.46 F1800.0
M101
G1 X21.29 Y-11.31 Z2.46 F1800.0
M103
G1 X21.29 Y-11.73 Z2.46 F1800.0
M101
G1 X-20.22 Y-11.73 Z2.46 F1800.0
M103
G1 X-20.22 Y-12.15 Z2.46 F1800.0
M101
G1 X21.29 Y-12.15 Z2.46 F1800.0
M103
G1 X21.29 Y-12.57 Z2.46 F1800.0
M101
G1 X-20.22 Y-12.57 Z2.46 F1800.0
M103
G1 X-20.22 Y-12.98 Z2.46 F1800.0
M101
G1 X21.29 Y-12.98 Z2.46 F1800.0
M103
G1 X21.29 Y-13.4 Z2.46 F1800.0
M101
G1 X-20.22 Y-13.4 Z2.46 F1800.0
M103
G1 X-20.2 Y-13.82 Z2.46 F1800.0
M101
G1 X21.27 Y-13.82 Z2.46 F1800.0
M103
(</surroundingLoop>)
(</layer>)
(<layer> 2.76 )
(<surroundingLoop>)
(<boundaryPerimeter>)
(<boundaryPoint> X21.599 Y-14.901 Z2.76 </boundaryPoint>)
(<boundaryPoint> X22.031 Y-14.469 Z2.76 </boundaryPoint>)
(<boundaryPoint> X22.189 Y-13.878 Z2.76 </boundaryPoint>)
(<boundaryPoint> X22.189 Y17.224 Z2.76 </boundaryPoint>)
(<boundaryPoint> X22.031 Y17.815 Z2.76 </boundaryPoint>)
(<boundaryPoint> X21.599 Y18.247 Z2.76 </boundaryPoint>)
(<boundaryPoint> X21.008 Y18.406 Z2.76 </boundaryPoint>)
(<boundaryPoint> X-19.937 Y18.406 Z2.76 </boundaryPoint>)
(<boundaryPoint> X-20.527 Y18.247 Z2.76 </boundaryPoint>)
(<boundaryPoint> X-20.959 Y17.815 Z2.76 </boundaryPoint>)
(<boundaryPoint> X-21.118 Y17.224 Z2.76 </boundaryPoint>)
(<boundaryPoint> X-21.118 Y-13.878 Z2.76 </boundaryPoint>)
(<boundaryPoint> X-20.959 Y-14.469 Z2.76 </boundaryPoint>)
(<boundaryPoint> X-20.527 Y-14.901 Z2.76 </boundaryPoint>)
(<boundaryPoint> X-19.937 Y-15.059 Z2.76 </boundaryPoint>)
(<boundaryPoint> X21.008 Y-15.059 Z2.76 </boundaryPoint>)
(<perimeter> outer )
M108 R0.5897
G1 X21.98 Y-13.85 Z2.76 F1800.0
M101
G1 X21.98 Y17.2 Z2.76 F900.0
G1 X21.84 Y17.71 Z2.76 F900.0
G1 X21.49 Y18.06 Z2.76 F900.0
G1 X20.98 Y18.2 Z2.76 F900.0
G1 X-19.91 Y18.2 Z2.76 F900.0
G1 X-20.42 Y18.06 Z2.76 F900.0
G1 X-20.77 Y17.71 Z2.76 F900.0
G1 X-20.91 Y17.2 Z2.76 F900.0
G1 X-20.91 Y-13.85 Z2.76 F900.0
G1 X-20.77 Y-14.36 Z2.76 F900.0
G1 X-20.42 Y-14.71 Z2.76 F900.0
G1 X-19.91 Y-14.85 Z2.76 F900.0
G1 X20.98 Y-14.85 Z2.76 F900.0
G1 X21.49 Y-14.71 Z2.76 F900.0
G1 X21.84 Y-14.36 Z2.76 F900.0
G1 X21.98 Y-13.85 Z2.76 F900.0
M103
(</perimeter>)
(</boundaryPerimeter>)
(<loop> outer )
M108 R1.179
G1 X21.56 Y-13.79 Z2.76 F1800.0
M101
G1 X21.56 Y17.14 Z2.76 F1800.0
G1 X21.47 Y17.49 Z2.76 F1800.0
G1 X21.27 Y17.68 Z2.76 F1800.0
G1 X20.93 Y17.78 Z2.76 F1800.0
G1 X-19.85 Y17.78 Z2.76 F1800.0
G1 X-20.2 Y17.68 Z2.76 F1800.0
G1 X-20.4 Y17.49 Z2.76 F1800.0
G1 X-20.49 Y17.14 Z2.76 F1800.0
G1 X-20.49 Y-13.79 Z2.76 F1800.0
G1 X-20.4 Y-14.14 Z2.76 F1800.0
G1 X-20.2 Y-14.34 Z2.76 F1800.0
G1 X-19.85 Y-14.43 Z2.76 F1800.0
G1 X20.93 Y-14.43 Z2.76 F1800.0
G1 X21.27 Y-14.34 Z2.76 F1800.0
G1 X21.47 Y-14.14 Z2.76 F1800.0
G1 X21.56 Y-13.79 Z2.76 F1800.0
M103
(</loop>)
G1 X20.94 Y-14.14 Z2.76 F1800.0
M101
G1 X20.94 Y17.49 Z2.76 F1800.0
M103
G1 X17.59 Y17.5 Z2.76 F1800.0
M101
G1 X17.59 Y-14.16 Z2.76 F1800.0
M103
G1 X17.17 Y-14.16 Z2.76 F1800.0
M101
G1 X17.17 Y17.5 Z2.76 F1800.0
M103
G1 X16.75 Y17.5 Z2.76 F1800.0
M101
G1 X16.75 Y-14.16 Z2.76 F1800.0
M103
G1 X16.34 Y-14.16 Z2.76 F1800.0
M101
G1 X16.34 Y17.5 Z2.76 F1800.0
M103
G1 X15.92 Y17.5 Z2.76 F1800.0
M101
G1 X15.92 Y-14.16 Z2.76 F1800.0
M103
G1 X15.5 Y-14.16 Z2.76 F1800.0
M101
G1 X15.5 Y17.5 Z2.76 F1800.0
M103
G1 X15.08 Y17.5 Z2.76 F1800.0
M101
G1 X15.08 Y-14.16 Z2.76 F1800.0
M103
G1 X14.66 Y-14.16 Z2.76 F1800.0
M101
G1 X14.66 Y17.5 Z2.76 F1800.0
M103
G1 X14.24 Y17.5 Z2.76 F1800.0
M101
G1 X14.24 Y-14.16 Z2.76 F1800.0
M103
G1 X13.82 Y-14.16 Z2.76 F1800.0
M101
G1 X13.82 Y17.5 Z2.76 F1800.0
M103
G1 X13.4 Y17.5 Z2.76 F1800.0
M101
G1 X13.4 Y-14.16 Z2.76 F1800.0
M103
G1 X12.98 Y-14.16 Z2.76 F1800.0
M101
G1 X12.98 Y17.5 Z2.76 F1800.0
M103
G1 X12.57 Y17.5 Z2.76 F1800.0
M101
G1 X12.57 Y-14.16 Z2.76 F1800.0
M103
G1 X12.15 Y-14.16 Z2.76 F1800.0
M101
G1 X12.15 Y17.5 Z2.76 F1800.0
M103
G1 X11.73 Y17.5 Z2.76 F1800.0
M101
G1 X11.73 Y-14.16 Z2.76 F1800.0
M103
G1 X11.31 Y-14.16 Z2.76 F1800.0
M101
G1 X11.31 Y17.5 Z2.76 F1800.0
M103
G1 X10.89 Y17.5 Z2.76 F1800.0
M101
G1 X10.89 Y-14.16 Z2.76 F1800.0
M103
G1 X10.47 Y-14.16 Z2.76 F1800.0
M101
G1 X10.47 Y17.5 Z2.76 F1800.0
M103
G1 X10.05 Y17.5 Z2.76 F1800.0
M101
G1 X10.05 Y-14.16 Z2.76 F1800.0
M103
G1 X9.63 Y-14.16 Z2.76 F1800.0
M101
G1 X9.63 Y17.5 Z2.76 F1800.0
M103
G1 X9.21 Y17.5 Z2.76 F1800.0
M101
G1 X9.21 Y-14.16 Z2.76 F1800.0
M103
G1 X8.8 Y-14.16 Z2.76 F1800.0
M101
G1 X8.8 Y17.5 Z2.76 F1800.0
M103
G1 X8.38 Y17.5 Z2.76 F1800.0
M101
G1 X8.38 Y-14.16 Z2.76 F1800.0
M103
G1 X7.96 Y-14.16 Z2.76 F1800.0
M101
G1 X7.96 Y17.5 Z2.76 F1800.0
M103
G1 X7.54 Y17.5 Z2.76 F1800.0
M101
G1 X7.54 Y-14.16 Z2.76 F1800.0
M103
G1 X7.12 Y-14.16 Z2.76 F1800.0
M101
G1 X7.12 Y17.5 Z2.76 F1800.0
M103
G1 X6.7 Y17.5 Z2.76 F1800.0
M101
G1 X6.7 Y-14.16 Z2.76 F1800.0
M103
G1 X6.28 Y-14.16 Z2.76 F1800.0
M101
G1 X6.28 Y17.5 Z2.76 F1800.0
M103
G1 X5.86 Y17.5 Z2.76 F1800.0
M101
G1 X5.86 Y-14.16 Z2.76 F1800.0
M103
G1 X5.45 Y-14.16 Z2.76 F1800.0
M101
G1 X5.45 Y17.5 Z2.76 F1800.0
M103
G1 X5.03 Y17.5 Z2.76 F1800.0
M101
G1 X5.03 Y-14.16 Z2.76 F1800.0
M103
G1 X4.61 Y-14.16 Z2.76 F1800.0
M101
G1 X4.61 Y17.5 Z2.76 F1800.0
M103
G1 X4.19 Y17.5 Z2.76 F1800.0
M101
G1 X4.19 Y-14.16 Z2.76 F1800.0
M103
G1 X3.77 Y-14.16 Z2.76 F1800.0
M101
G1 X3.77 Y17.5 Z2.76 F1800.0
M103
G1 X3.35 Y17.5 Z2.76 F1800.0
M101
G1 X3.35 Y-14.16 Z2.76 F1800.0
M103
G1 X2.93 Y-14.16 Z2.76 F1800.0
M101
G1 X2.93 Y17.5 Z2.76 F1800.0
M103
G1 X2.51 Y17.5 Z2.76 F1800.0
M101
G1 X2.51 Y-14.16 Z2.76 F1800.0
M103
G1 X2.09 Y-14.16 Z2.76 F1800.0
M101
G1 X2.09 Y17.5 Z2.76 F1800.0
M103
G1 X1.68 Y17.5 Z2.76 F1800.0
M101
G1 X1.68 Y-14.16 Z2.76 F1800.0
M103
G1 X1.26 Y-14.16 Z2.76 F1800.0
M101
G1 X1.26 Y17.5 Z2.76 F1800.0
M103
G1 X0.84 Y17.5 Z2.76 F1800.0
M101
G1 X0.84 Y-14.16 Z2.76 F1800.0
M103
G1 X0.42 Y-14.16 Z2.76 F1800.0
M101
G1 X0.42 Y17.5 Z2.76 F1800.0
M103
G1 X0.0 Y17.5 Z2.76 F1800.0
M101
G1 X-0.0 Y-14.16 Z2.76 F1800.0
M103
G1 X-0.42 Y-14.16 Z2.76 F1800.0
M101
G1 X-0.42 Y17.5 Z2.76 F1800.0
M103
G1 X-0.84 Y17.5 Z2.76 F1800.0
M101
G1 X-0.84 Y-14.16 Z2.76 F1800.0
M103
G1 X-1.26 Y-14.16 Z2.76 F1800.0
M101
G1 X-1.26 Y17.5 Z2.76 F1800.0
M103
G1 X-1.68 Y17.5 Z2.76 F1800.0
M101
G1 X-1.68 Y-14.16 Z2.76 F1800.0
M103
G1 X-2.09 Y-14.16 Z2.76 F1800.0
M101
G1 X-2.09 Y17.5 Z2.76 F1800.0
M103
G1 X-2.51 Y17.5 Z2.76 F1800.0
M101
G1 X-2.51 Y-14.16 Z2.76 F1800.0
M103
G1 X-2.93 Y-14.16 Z2.76 F1800.0
M101
G1 X-2.93 Y17.5 Z2.76 F1800.0
M103
G1 X-3.35 Y17.5 Z2.76 F1800.0
M101
G1 X-3.35 Y-14.16 Z2.76 F1800.0
M103
G1 X-3.77 Y-14.16 Z2.76 F1800.0
M101
G1 X-3.77 Y17.5 Z2.76 F1800.0
M103
G1 X-4.19 Y17.5 Z2.76 F1800.0
M101
G1 X-4.19 Y-14.16 Z2.76 F1800.0
M103
G1 X-4.61 Y-14.16 Z2.76 F1800.0
M101
G1 X-4.61 Y17.5 Z2.76 F1800.0
M103
G1 X-5.03 Y17.5 Z2.76 F1800.0
M101
G1 X-5.03 Y-14.16 Z2.76 F1800.0
M103
G1 X-5.45 Y-14.16 Z2.76 F1800.0
M101
G1 X-5.45 Y17.5 Z2.76 F1800.0
M103
G1 X-5.86 Y17.5 Z2.76 F1800.0
M101
G1 X-5.86 Y-14.16 Z2.76 F1800.0
M103
G1 X-6.28 Y-14.16 Z2.76 F1800.0
M101
G1 X-6.28 Y17.5 Z2.76 F1800.0
M103
G1 X-6.7 Y17.5 Z2.76 F1800.0
M101
G1 X-6.7 Y-14.16 Z2.76 F1800.0
M103
G1 X-7.12 Y-14.16 Z2.76 F1800.0
M101
G1 X-7.12 Y17.5 Z2.76 F1800.0
M103
G1 X-7.54 Y17.5 Z2.76 F1800.0
M101
G1 X-7.54 Y-14.16 Z2.76 F1800.0
M103
G1 X-7.96 Y-14.16 Z2.76 F1800.0
M101
G1 X-7.96 Y17.5 Z2.76 F1800.0
M103
G1 X-8.38 Y17.5 Z2.76 F1800.0
M101
G1 X-8.38 Y-14.16 Z2.76 F1800.0
M103
G1 X-8.8 Y-14.16 Z2.76 F1800.0
M101
G1 X-8.8 Y17.5 Z2.76 F1800.0
M103
G1 X-9.21 Y17.5 Z2.76 F1800.0
M101
G1 X-9.21 Y-14.16 Z2.76 F1800.0
M103
G1 X-9.63 Y-14.16 Z2.76 F1800.0
M101
G1 X-9.63 Y17.5 Z2.76 F1800.0
M103
G1 X-10.05 Y17.5 Z2.76 F1800.0
M101
G1 X-10.05 Y-14.16 Z2.76 F1800.0
M103
G1 X-10.47 Y-14.16 Z2.76 F1800.0
M101
G1 X-10.47 Y17.5 Z2.76 F1800.0
M103
G1 X-10.89 Y17.5 Z2.76 F1800.0
M101
G1 X-10.89 Y-14.16 Z2.76 F1800.0
M103
G1 X-11.31 Y-14.16 Z2.76 F1800.0
M101
G1 X-11.31 Y17.5 Z2.76 F1800.0
M103
G1 X-11.73 Y17.5 Z2.76 F1800.0
M101
G1 X-11.73 Y-14.16 Z2.76 F1800.0
M103
G1 X-12.15 Y-14.16 Z2.76 F1800.0
M101
G1 X-12.15 Y17.5 Z2.76 F1800.0
M103
G1 X-12.57 Y17.5 Z2.76 F1800.0
M101
G1 X-12.57 Y-14.16 Z2.76 F1800.0
M103
G1 X-12.98 Y-14.16 Z2.76 F1800.0
M101
G1 X-12.98 Y17.5 Z2.76 F1800.0
M103
G1 X-13.4 Y17.5 Z2.76 F1800.0
M101
G1 X-13.4 Y-14.16 Z2.76 F1800.0
M103
G1 X-13.82 Y-14.16 Z2.76 F1800.0
M101
G1 X-13.82 Y17.5 Z2.76 F1800.0
M103
G1 X-14.24 Y17.5 Z2.76 F1800.0
M101
G1 X-14.24 Y-14.16 Z2.76 F1800.0
M103
G1 X-14.66 Y-14.16 Z2.76 F1800.0
M101
G1 X-14.66 Y17.5 Z2.76 F1800.0
M103
G1 X-15.08 Y17.5 Z2.76 F1800.0
M101
G1 X-15.08 Y-14.16 Z2.76 F1800.0
M103
G1 X-15.5 Y-14.16 Z2.76 F1800.0
M101
G1 X-15.5 Y17.5 Z2.76 F1800.0
M103
G1 X-15.92 Y17.5 Z2.76 F1800.0
M101
G1 X-15.92 Y-14.16 Z2.76 F1800.0
M103
G1 X-16.34 Y-14.16 Z2.76 F1800.0
M101
G1 X-16.34 Y17.5 Z2.76 F1800.0
M103
G1 X-16.75 Y17.5 Z2.76 F1800.0
M101
G1 X-16.75 Y-14.16 Z2.76 F1800.0
M103
G1 X-19.69 Y-14.16 Z2.76 F1800.0
M101
G1 X-20.11 Y-14.05 Z2.76 F1800.0
G1 X-20.11 Y17.39 Z2.76 F1800.0
G1 X-19.69 Y17.5 Z2.76 F1800.0
M103
(</surroundingLoop>)
(</layer>)
(<layer> 3.06 )
(<surroundingLoop>)
(<boundaryPerimeter>)
(<boundaryPoint> X-16.787 Y16.437 Z3.06 </boundaryPoint>)
(<boundaryPoint> X17.859 Y16.437 Z3.06 </boundaryPoint>)
(<boundaryPoint> X17.859 Y-15.059 Z3.06 </boundaryPoint>)
(<boundaryPoint> X21.008 Y-15.059 Z3.06 </boundaryPoint>)
(<boundaryPoint> X21.599 Y-14.901 Z3.06 </boundaryPoint>)
(<boundaryPoint> X22.031 Y-14.469 Z3.06 </boundaryPoint>)
(<boundaryPoint> X22.189 Y-13.878 Z3.06 </boundaryPoint>)
(<boundaryPoint> X22.189 Y17.224 Z3.06 </boundaryPoint>)
(<boundaryPoint> X22.031 Y17.815 Z3.06 </boundaryPoint>)
(<boundaryPoint> X21.599 Y18.247 Z3.06 </boundaryPoint>)
(<boundaryPoint> X21.008 Y18.406 Z3.06 </boundaryPoint>)
(<boundaryPoint> X-19.937 Y18.406 Z3.06 </boundaryPoint>)
(<boundaryPoint> X-20.527 Y18.247 Z3.06 </boundaryPoint>)
(<boundaryPoint> X-20.959 Y17.815 Z3.06 </boundaryPoint>)
(<boundaryPoint> X-21.118 Y17.224 Z3.06 </boundaryPoint>)
(<boundaryPoint> X-21.118 Y-13.878 Z3.06 </boundaryPoint>)
(<boundaryPoint> X-20.959 Y-14.469 Z3.06 </boundaryPoint>)
(<boundaryPoint> X-20.527 Y-14.901 Z3.06 </boundaryPoint>)
(<boundaryPoint> X-19.937 Y-15.059 Z3.06 </boundaryPoint>)
(<boundaryPoint> X-16.956 Y-15.059 Z3.06 </boundaryPoint>)
(<boundaryPoint> X-16.787 Y-14.678 Z3.06 </boundaryPoint>)
(<perimeter> outer )
M108 R0.5897
G1 X-19.69 Y18.2 Z3.06 F1800.0
M101
G1 X-19.91 Y18.2 Z3.06 F900.0
G1 X-20.42 Y18.06 Z3.06 F900.0
G1 X-20.77 Y17.71 Z3.06 F900.0
G1 X-20.91 Y17.2 Z3.06 F900.0
G1 X-20.91 Y-13.85 Z3.06 F900.0
G1 X-20.77 Y-14.36 Z3.06 F900.0
G1 X-20.42 Y-14.71 Z3.06 F900.0
G1 X-19.91 Y-14.85 Z3.06 F900.0
G1 X-17.09 Y-14.85 Z3.06 F900.0
G1 X-17.0 Y-14.63 Z3.06 F900.0
G1 X-17.0 Y16.65 Z3.06 F900.0
G1 X18.07 Y16.65 Z3.06 F900.0
G1 X18.07 Y-14.85 Z3.06 F900.0
G1 X20.98 Y-14.85 Z3.06 F900.0
G1 X21.49 Y-14.71 Z3.06 F900.0
G1 X21.84 Y-14.36 Z3.06 F900.0
G1 X21.98 Y-13.85 Z3.06 F900.0
G1 X21.98 Y17.2 Z3.06 F900.0
G1 X21.84 Y17.71 Z3.06 F900.0
G1 X21.49 Y18.06 Z3.06 F900.0
G1 X20.98 Y18.2 Z3.06 F900.0
G1 X-19.69 Y18.2 Z3.06 F900.0
M103
(</perimeter>)
(</boundaryPerimeter>)
(<loop> outer )
M108 R1.179
G1 X-19.85 Y17.78 Z3.06 F1800.0
M101
G1 X-20.2 Y17.68 Z3.06 F1800.0
G1 X-20.4 Y17.49 Z3.06 F1800.0
G1 X-20.49 Y17.14 Z3.06 F1800.0
G1 X-20.49 Y-13.79 Z3.06 F1800.0
G1 X-20.4 Y-14.14 Z3.06 F1800.0
G1 X-20.2 Y-14.34 Z3.06 F1800.0
G1 X-19.85 Y-14.43 Z3.06 F1800.0
G1 X-17.41 Y-14.43 Z3.06 F1800.0
G1 X-17.41 Y17.07 Z3.06 F1800.0
G1 X18.49 Y17.07 Z3.06 F1800.0
G1 X18.49 Y-14.43 Z3.06 F1800.0
G1 X20.93 Y-14.43 Z3.06 F1800.0
G1 X21.27 Y-14.34 Z3.06 F1800.0
G1 X21.47 Y-14.14 Z3.06 F1800.0
G1 X21.56 Y-13.79 Z3.06 F1800.0
G1 X21.56 Y17.14 Z3.06 F1800.0
G1 X21.47 Y17.49 Z3.06 F1800.0
G1 X21.27 Y17.68 Z3.06 F1800.0
G1 X20.93 Y17.78 Z3.06 F1800.0
G1 X-19.85 Y17.78 Z3.06 F1800.0
M103
(</loop>)
G1 X-17.69 Y-13.82 Z3.06 F1800.0
M101
G1 X-20.2 Y-13.82 Z3.06 F1800.0
G1 X-17.69 Y-11.73 Z3.06 F1800.0
G1 X-20.22 Y-11.73 Z3.06 F1800.0
G1 X-17.69 Y-7.54 Z3.06 F1800.0
G1 X-20.22 Y-7.54 Z3.06 F1800.0
G1 X-17.69 Y-3.35 Z3.06 F1800.0
G1 X-20.22 Y-3.35 Z3.06 F1800.0
G1 X-17.69 Y0.84 Z3.06 F1800.0
G1 X-20.22 Y0.84 Z3.06 F1800.0
G1 X-17.69 Y5.03 Z3.06 F1800.0
G1 X-20.22 Y5.03 Z3.06 F1800.0
G1 X-17.69 Y9.21 Z3.06 F1800.0
G1 X-20.22 Y9.21 Z3.06 F1800.0
G1 X-17.69 Y13.4 Z3.06 F1800.0
G1 X-20.22 Y13.4 Z3.06 F1800.0
G1 X-17.69 Y17.17 Z3.06 F1800.0
G1 X-20.2 Y17.17 Z3.06 F1800.0
M103
G1 X-16.36 Y16.73 Z3.06 F1800.0
G1 X18.01 Y16.58 Z3.06 F1800.0
G1 X18.15 Y9.87 Z3.06 F1800.0
G1 X21.29 Y9.21 Z3.06 F1800.0
M101
G1 X20.87 Y9.63 Z3.06 F1800.0
G1 X20.87 Y10.05 Z3.06 F1800.0
G1 X21.29 Y10.47 Z3.06 F1800.0
G1 X20.87 Y10.89 Z3.06 F1800.0
G1 X20.87 Y11.31 Z3.06 F1800.0
G1 X21.29 Y11.73 Z3.06 F1800.0
G1 X20.87 Y12.15 Z3.06 F1800.0
G1 X18.76 Y12.98 Z3.06 F1800.0
G1 X18.76 Y8.8 Z3.06 F1800.0
M103
G1 X18.76 Y4.61 Z3.06 F1800.0
M101
G1 X18.76 Y8.38 Z3.06 F1800.0
G1 X20.87 Y7.96 Z3.06 F1800.0
G1 X21.29 Y7.54 Z3.06 F1800.0
G1 X20.87 Y7.12 Z3.06 F1800.0
G1 X20.87 Y6.7 Z3.06 F1800.0
G1 X21.29 Y6.28 Z3.06 F1800.0
G1 X20.87 Y5.86 Z3.06 F1800.0
G1 X20.87 Y5.45 Z3.06 F1800.0
G1 X21.29 Y5.03 Z3.06 F1800.0
M103
G1 X21.29 Y0.84 Z3.06 F1800.0
M101
G1 X20.87 Y1.26 Z3.06 F1800.0
G1 X20.87 Y1.68 Z3.06 F1800.0
G1 X21.29 Y2.09 Z3.06 F1800.0
G1 X20.87 Y2.51 Z3.06 F1800.0
G1 X20.87 Y2.93 Z3.06 F1800.0
G1 X21.29 Y3.35 Z3.06 F1800.0
G1 X20.87 Y3.77 Z3.06 F1800.0
G1 X18.76 Y4.19 Z3.06 F1800.0
G1 X18.76 Y-3.35 Z3.06 F1800.0
G1 X21.29 Y-3.35 Z3.06 F1800.0
M103
G1 X21.29 Y-7.54 Z3.06 F1800.0
M101
G1 X20.87 Y-7.12 Z3.06 F1800.0
G1 X20.87 Y-6.7 Z3.06 F1800.0
G1 X21.29 Y-6.28 Z3.06 F1800.0
G1 X20.87 Y-5.86 Z3.06 F1800.0
G1 X20.87 Y-5.45 Z3.06 F1800.0
G1 X21.29 Y-5.03 Z3.06 F1800.0
G1 X20.87 Y-4.61 Z3.06 F1800.0
G1 X18.76 Y-3.77 Z3.06 F1800.0
G1 X18.76 Y-7.96 Z3.06 F1800.0
M103
G1 X18.76 Y-12.15 Z3.06 F1800.0
M101
G1 X18.76 Y-8.38 Z3.06 F1800.0
G1 X20.87 Y-8.8 Z3.06 F1800.0
G1 X21.29 Y-9.21 Z3.06 F1800.0
G1 X20.87 Y-9.63 Z3.06 F1800.0
G1 X20.87 Y-10.05 Z3.06 F1800.0
G1 X21.29 Y-10.47 Z3.06 F1800.0
G1 X20.87 Y-10.89 Z3.06 F1800.0
G1 X20.87 Y-11.31 Z3.06 F1800.0
G1 X21.29 Y-11.73 Z3.06 F1800.0
G1 X20.99 Y-12.27 Z3.06 F1800.0
G1 X20.87 Y-12.98 Z3.06 F1800.0
G1 X18.76 Y-12.57 Z3.06 F1800.0
G1 X18.76 Y-13.82 Z3.06 F1800.0
G1 X21.27 Y-13.82 Z3.06 F1800.0
M103
G1 X21.27 Y17.17 Z3.06 F1800.0
M101
G1 X18.76 Y17.17 Z3.06 F1800.0
G1 X18.76 Y13.4 Z3.06 F1800.0
G1 X21.29 Y13.4 Z3.06 F1800.0
M103
(</surroundingLoop>)
(</layer>)
(<layer> 3.36 )
(<surroundingLoop>)
(<boundaryPerimeter>)
(<boundaryPoint> X-16.787 Y16.437 Z3.36 </boundaryPoint>)
(<boundaryPoint> X17.859 Y16.437 Z3.36 </boundaryPoint>)
(<boundaryPoint> X17.859 Y-15.059 Z3.36 </boundaryPoint>)
(<boundaryPoint> X21.008 Y-15.059 Z3.36 </boundaryPoint>)
(<boundaryPoint> X21.599 Y-14.901 Z3.36 </boundaryPoint>)
(<boundaryPoint> X22.031 Y-14.469 Z3.36 </boundaryPoint>)
(<boundaryPoint> X22.189 Y-13.878 Z3.36 </boundaryPoint>)
(<boundaryPoint> X22.189 Y17.224 Z3.36 </boundaryPoint>)
(<boundaryPoint> X22.031 Y17.815 Z3.36 </boundaryPoint>)
(<boundaryPoint> X21.599 Y18.247 Z3.36 </boundaryPoint>)
(<boundaryPoint> X21.008 Y18.406 Z3.36 </boundaryPoint>)
(<boundaryPoint> X-19.937 Y18.406 Z3.36 </boundaryPoint>)
(<boundaryPoint> X-20.527 Y18.247 Z3.36 </boundaryPoint>)
(<boundaryPoint> X-20.959 Y17.815 Z3.36 </boundaryPoint>)
(<boundaryPoint> X-21.118 Y17.224 Z3.36 </boundaryPoint>)
(<boundaryPoint> X-21.118 Y-13.878 Z3.36 </boundaryPoint>)
(<boundaryPoint> X-20.959 Y-14.469 Z3.36 </boundaryPoint>)
(<boundaryPoint> X-20.527 Y-14.901 Z3.36 </boundaryPoint>)
(<boundaryPoint> X-19.937 Y-15.059 Z3.36 </boundaryPoint>)
(<boundaryPoint> X-16.787 Y-15.059 Z3.36 </boundaryPoint>)
(<perimeter> outer )
M108 R0.5897
G1 X21.98 Y13.4 Z3.36 F1800.0
M101
G1 X21.98 Y17.2 Z3.36 F900.0
G1 X21.84 Y17.71 Z3.36 F900.0
G1 X21.49 Y18.06 Z3.36 F900.0
G1 X20.98 Y18.2 Z3.36 F900.0
G1 X-19.91 Y18.2 Z3.36 F900.0
G1 X-20.42 Y18.06 Z3.36 F900.0
G1 X-20.77 Y17.71 Z3.36 F900.0
G1 X-20.91 Y17.2 Z3.36 F900.0
G1 X-20.91 Y-13.85 Z3.36 F900.0
G1 X-20.77 Y-14.36 Z3.36 F900.0
G1 X-20.42 Y-14.71 Z3.36 F900.0
G1 X-19.91 Y-14.85 Z3.36 F900.0
G1 X-17.0 Y-14.85 Z3.36 F900.0
G1 X-17.0 Y16.65 Z3.36 F900.0
G1 X18.07 Y16.65 Z3.36 F900.0
G1 X18.07 Y-14.85 Z3.36 F900.0
G1 X20.98 Y-14.85 Z3.36 F900.0
G1 X21.49 Y-14.71 Z3.36 F900.0
G1 X21.84 Y-14.36 Z3.36 F900.0
G1 X21.98 Y-13.85 Z3.36 F900.0
G1 X21.98 Y13.4 Z3.36 F900.0
M103
(</perimeter>)
(</boundaryPerimeter>)
(<loop> outer )
M108 R1.179
G1 X21.56 Y13.4 Z3.36 F1800.0
M101
G1 X21.56 Y17.14 Z3.36 F1800.0
G1 X21.47 Y17.49 Z3.36 F1800.0
G1 X21.27 Y17.68 Z3.36 F1800.0
G1 X20.93 Y17.78 Z3.36 F1800.0
G1 X-19.85 Y17.78 Z3.36 F1800.0
G1 X-20.2 Y17.68 Z3.36 F1800.0
G1 X-20.4 Y17.49 Z3.36 F1800.0
G1 X-20.49 Y17.14 Z3.36 F1800.0
G1 X-20.49 Y-13.79 Z3.36 F1800.0
G1 X-20.4 Y-14.14 Z3.36 F1800.0
G1 X-20.2 Y-14.34 Z3.36 F1800.0
G1 X-19.85 Y-14.43 Z3.36 F1800.0
G1 X-17.41 Y-14.43 Z3.36 F1800.0
G1 X-17.41 Y17.07 Z3.36 F1800.0
G1 X18.49 Y17.07 Z3.36 F1800.0
G1 X18.49 Y-14.43 Z3.36 F1800.0
G1 X20.93 Y-14.43 Z3.36 F1800.0
G1 X21.27 Y-14.34 Z3.36 F1800.0
G1 X21.47 Y-14.14 Z3.36 F1800.0
G1 X21.56 Y-13.79 Z3.36 F1800.0
G1 X21.56 Y13.4 Z3.36 F1800.0
M103
(</loop>)
G1 X20.94 Y-14.14 Z3.36 F1800.0
M101
G1 X20.94 Y17.49 Z3.36 F1800.0
G1 X20.51 Y17.09 Z3.36 F1800.0
G1 X20.09 Y17.38 Z3.36 F1800.0
G1 X19.0 Y17.12 Z3.36 F1800.0
G1 X18.43 Y17.34 Z3.36 F1800.0
G1 X18.43 Y17.5 Z3.36 F1800.0
G1 X18.01 Y17.34 Z3.36 F1800.0
G1 X18.01 Y17.5 Z3.36 F1800.0
G1 X17.59 Y17.34 Z3.36 F1800.0
G1 X17.59 Y17.5 Z3.36 F1800.0
G1 X17.17 Y17.34 Z3.36 F1800.0
G1 X17.17 Y17.5 Z3.36 F1800.0
G1 X16.75 Y17.34 Z3.36 F1800.0
G1 X16.75 Y17.5 Z3.36 F1800.0
G1 X16.34 Y17.34 Z3.36 F1800.0
G1 X16.34 Y17.5 Z3.36 F1800.0
G1 X15.92 Y17.34 Z3.36 F1800.0
G1 X15.92 Y17.5 Z3.36 F1800.0
G1 X15.5 Y17.34 Z3.36 F1800.0
G1 X15.5 Y17.5 Z3.36 F1800.0
G1 X15.08 Y17.34 Z3.36 F1800.0
G1 X15.08 Y17.5 Z3.36 F1800.0
G1 X14.66 Y17.34 Z3.36 F1800.0
G1 X14.66 Y17.5 Z3.36 F1800.0
G1 X14.24 Y17.34 Z3.36 F1800.0
G1 X14.24 Y17.5 Z3.36 F1800.0
G1 X13.82 Y17.34 Z3.36 F1800.0
G1 X13.82 Y17.5 Z3.36 F1800.0
G1 X13.4 Y17.34 Z3.36 F1800.0
G1 X13.4 Y17.5 Z3.36 F1800.0
G1 X12.98 Y17.34 Z3.36 F1800.0
G1 X12.98 Y17.5 Z3.36 F1800.0
G1 X12.57 Y17.34 Z3.36 F1800.0
G1 X12.57 Y17.5 Z3.36 F1800.0
G1 X12.15 Y17.34 Z3.36 F1800.0
G1 X12.15 Y17.5 Z3.36 F1800.0
G1 X11.73 Y17.34 Z3.36 F1800.0
G1 X11.73 Y17.5 Z3.36 F1800.0
G1 X11.31 Y17.34 Z3.36 F1800.0
G1 X11.31 Y17.5 Z3.36 F1800.0
G1 X10.89 Y17.34 Z3.36 F1800.0
G1 X10.89 Y17.5 Z3.36 F1800.0
G1 X10.47 Y17.34 Z3.36 F1800.0
G1 X10.47 Y17.5 Z3.36 F1800.0
G1 X10.05 Y17.34 Z3.36 F1800.0
G1 X10.05 Y17.5 Z3.36 F1800.0
G1 X9.63 Y17.34 Z3.36 F1800.0
G1 X9.63 Y17.5 Z3.36 F1800.0
G1 X9.21 Y17.34 Z3.36 F1800.0
G1 X9.21 Y17.5 Z3.36 F1800.0
G1 X8.8 Y17.34 Z3.36 F1800.0
G1 X8.8 Y17.5 Z3.36 F1800.0
G1 X8.38 Y17.34 Z3.36 F1800.0
G1 X8.38 Y17.5 Z3.36 F1800.0
G1 X7.96 Y17.34 Z3.36 F1800.0
G1 X7.96 Y17.5 Z3.36 F1800.0
G1 X7.54 Y17.34 Z3.36 F1800.0
G1 X7.54 Y17.5 Z3.36 F1800.0
G1 X7.12 Y17.34 Z3.36 F1800.0
G1 X7.12 Y17.5 Z3.36 F1800.0
G1 X6.7 Y17.34 Z3.36 F1800.0
G1 X6.7 Y17.5 Z3.36 F1800.0
G1 X6.28 Y17.34 Z3.36 F1800.0
G1 X6.28 Y17.5 Z3.36 F1800.0
G1 X5.86 Y17.34 Z3.36 F1800.0
G1 X5.86 Y17.5 Z3.36 F1800.0
G1 X5.45 Y17.34 Z3.36 F1800.0
G1 X5.45 Y17.5 Z3.36 F1800.0
G1 X5.03 Y17.34 Z3.36 F1800.0
G1 X5.03 Y17.5 Z3.36 F1800.0
G1 X4.61 Y17.34 Z3.36 F1800.0
G1 X4.61 Y17.5 Z3.36 F1800.0
G1 X4.19 Y17.34 Z3.36 F1800.0
G1 X4.19 Y17.5 Z3.36 F1800.0
G1 X3.77 Y17.34 Z3.36 F1800.0
G1 X3.77 Y17.5 Z3.36 F1800.0
G1 X3.35 Y17.34 Z3.36 F1800.0
G1 X3.35 Y17.5 Z3.36 F1800.0
G1 X2.93 Y17.34 Z3.36 F1800.0
G1 X2.93 Y17.5 Z3.36 F1800.0
G1 X2.51 Y17.34 Z3.36 F1800.0
G1 X2.51 Y17.5 Z3.36 F1800.0
G1 X2.09 Y17.34 Z3.36 F1800.0
G1 X2.09 Y17.5 Z3.36 F1800.0
G1 X1.68 Y17.34 Z3.36 F1800.0
G1 X1.68 Y17.5 Z3.36 F1800.0
G1 X1.26 Y17.34 Z3.36 F1800.0
G1 X1.26 Y17.5 Z3.36 F1800.0
G1 X0.84 Y17.34 Z3.36 F1800.0
G1 X0.84 Y17.5 Z3.36 F1800.0
G1 X0.42 Y17.34 Z3.36 F1800.0
G1 X0.42 Y17.5 Z3.36 F1800.0
G1 X0.0 Y17.34 Z3.36 F1800.0
G1 X0.0 Y17.5 Z3.36 F1800.0
G1 X-0.42 Y17.34 Z3.36 F1800.0
G1 X-0.42 Y17.5 Z3.36 F1800.0
G1 X-0.84 Y17.34 Z3.36 F1800.0
G1 X-0.84 Y17.5 Z3.36 F1800.0
G1 X-1.26 Y17.34 Z3.36 F1800.0
G1 X-1.26 Y17.5 Z3.36 F1800.0
G1 X-1.68 Y17.34 Z3.36 F1800.0
G1 X-1.68 Y17.5 Z3.36 F1800.0
G1 X-2.09 Y17.34 Z3.36 F1800.0
G1 X-2.09 Y17.5 Z3.36 F1800.0
G1 X-2.51 Y17.34 Z3.36 F1800.0
G1 X-2.51 Y17.5 Z3.36 F1800.0
G1 X-2.93 Y17.34 Z3.36 F1800.0
G1 X-2.93 Y17.5 Z3.36 F1800.0
G1 X-3.35 Y17.34 Z3.36 F1800.0
G1 X-3.35 Y17.5 Z3.36 F1800.0
G1 X-3.77 Y17.34 Z3.36 F1800.0
G1 X-3.77 Y17.5 Z3.36 F1800.0
G1 X-4.19 Y17.34 Z3.36 F1800.0
G1 X-4.19 Y17.5 Z3.36 F1800.0
G1 X-4.61 Y17.34 Z3.36 F1800.0
G1 X-4.61 Y17.5 Z3.36 F1800.0
G1 X-5.03 Y17.34 Z3.36 F1800.0
G1 X-5.03 Y17.5 Z3.36 F1800.0
G1 X-5.45 Y17.34 Z3.36 F1800.0
G1 X-5.45 Y17.5 Z3.36 F1800.0
G1 X-5.86 Y17.34 Z3.36 F1800.0
G1 X-5.86 Y17.5 Z3.36 F1800.0
G1 X-6.28 Y17.34 Z3.36 F1800.0
G1 X-6.28 Y17.5 Z3.36 F1800.0
G1 X-6.7 Y17.34 Z3.36 F1800.0
G1 X-6.7 Y17.5 Z3.36 F1800.0
G1 X-7.12 Y17.34 Z3.36 F1800.0
G1 X-7.12 Y17.5 Z3.36 F1800.0
G1 X-7.54 Y17.34 Z3.36 F1800.0
G1 X-7.54 Y17.5 Z3.36 F1800.0
G1 X-7.96 Y17.34 Z3.36 F1800.0
G1 X-7.96 Y17.5 Z3.36 F1800.0
G1 X-8.38 Y17.34 Z3.36 F1800.0
G1 X-8.38 Y17.5 Z3.36 F1800.0
G1 X-8.8 Y17.34 Z3.36 F1800.0
G1 X-8.8 Y17.5 Z3.36 F1800.0
G1 X-9.21 Y17.34 Z3.36 F1800.0
G1 X-9.21 Y17.5 Z3.36 F1800.0
G1 X-9.63 Y17.34 Z3.36 F1800.0
G1 X-9.63 Y17.5 Z3.36 F1800.0
G1 X-10.05 Y17.34 Z3.36 F1800.0
G1 X-10.05 Y17.5 Z3.36 F1800.0
G1 X-10.47 Y17.34 Z3.36 F1800.0
G1 X-10.47 Y17.5 Z3.36 F1800.0
G1 X-10.89 Y17.34 Z3.36 F1800.0
G1 X-10.89 Y17.5 Z3.36 F1800.0
G1 X-11.31 Y17.34 Z3.36 F1800.0
G1 X-11.31 Y17.5 Z3.36 F1800.0
G1 X-11.73 Y17.34 Z3.36 F1800.0
G1 X-11.73 Y17.5 Z3.36 F1800.0
G1 X-12.15 Y17.34 Z3.36 F1800.0
G1 X-12.15 Y17.5 Z3.36 F1800.0
G1 X-12.57 Y17.34 Z3.36 F1800.0
G1 X-12.57 Y17.5 Z3.36 F1800.0
G1 X-12.98 Y17.34 Z3.36 F1800.0
G1 X-12.98 Y17.5 Z3.36 F1800.0
G1 X-13.4 Y17.34 Z3.36 F1800.0
G1 X-13.4 Y17.5 Z3.36 F1800.0
G1 X-13.82 Y17.34 Z3.36 F1800.0
G1 X-13.82 Y17.5 Z3.36 F1800.0
G1 X-14.24 Y17.34 Z3.36 F1800.0
G1 X-14.24 Y17.5 Z3.36 F1800.0
G1 X-14.66 Y17.34 Z3.36 F1800.0
G1 X-14.66 Y17.5 Z3.36 F1800.0
G1 X-15.08 Y17.34 Z3.36 F1800.0
G1 X-15.08 Y17.5 Z3.36 F1800.0
G1 X-15.5 Y17.34 Z3.36 F1800.0
G1 X-15.5 Y17.5 Z3.36 F1800.0
G1 X-15.92 Y17.34 Z3.36 F1800.0
G1 X-15.92 Y17.5 Z3.36 F1800.0
G1 X-16.34 Y17.34 Z3.36 F1800.0
G1 X-16.34 Y17.5 Z3.36 F1800.0
G1 X-16.75 Y17.34 Z3.36 F1800.0
G1 X-16.75 Y17.5 Z3.36 F1800.0
G1 X-17.17 Y17.34 Z3.36 F1800.0
G1 X-17.17 Y17.5 Z3.36 F1800.0
G1 X-17.59 Y17.34 Z3.36 F1800.0
G1 X-17.59 Y17.5 Z3.36 F1800.0
M103
G1 X-19.69 Y17.5 Z3.36 F1800.0
M101
G1 X-20.11 Y17.39 Z3.36 F1800.0
G1 X-20.11 Y-14.05 Z3.36 F1800.0
G1 X-19.69 Y-14.16 Z3.36 F1800.0
M103
(</surroundingLoop>)
(</layer>)
(<layer> 3.66 )
(<surroundingLoop>)
(<boundaryPerimeter>)
(<boundaryPoint> X-16.787 Y16.437 Z3.66 </boundaryPoint>)
(<boundaryPoint> X17.859 Y16.437 Z3.66 </boundaryPoint>)
(<boundaryPoint> X17.859 Y-15.059 Z3.66 </boundaryPoint>)
(<boundaryPoint> X21.008 Y-15.059 Z3.66 </boundaryPoint>)
(<boundaryPoint> X21.599 Y-14.901 Z3.66 </boundaryPoint>)
(<boundaryPoint> X22.031 Y-14.469 Z3.66 </boundaryPoint>)
(<boundaryPoint> X22.189 Y-13.878 Z3.66 </boundaryPoint>)
(<boundaryPoint> X22.189 Y17.224 Z3.66 </boundaryPoint>)
(<boundaryPoint> X22.031 Y17.815 Z3.66 </boundaryPoint>)
(<boundaryPoint> X21.599 Y18.247 Z3.66 </boundaryPoint>)
(<boundaryPoint> X21.008 Y18.406 Z3.66 </boundaryPoint>)
(<boundaryPoint> X-19.937 Y18.406 Z3.66 </boundaryPoint>)
(<boundaryPoint> X-20.527 Y18.247 Z3.66 </boundaryPoint>)
(<boundaryPoint> X-20.959 Y17.815 Z3.66 </boundaryPoint>)
(<boundaryPoint> X-21.118 Y17.224 Z3.66 </boundaryPoint>)
(<boundaryPoint> X-21.118 Y-13.878 Z3.66 </boundaryPoint>)
(<boundaryPoint> X-20.959 Y-14.469 Z3.66 </boundaryPoint>)
(<boundaryPoint> X-20.527 Y-14.901 Z3.66 </boundaryPoint>)
(<boundaryPoint> X-19.937 Y-15.059 Z3.66 </boundaryPoint>)
(<boundaryPoint> X-16.787 Y-15.059 Z3.66 </boundaryPoint>)
(<perimeter> outer )
M108 R0.5897
G1 X-19.69 Y-14.85 Z3.66 F1800.0
M101
G1 X-17.0 Y-14.85 Z3.66 F900.0
G1 X-17.0 Y16.65 Z3.66 F900.0
G1 X18.07 Y16.65 Z3.66 F900.0
G1 X18.07 Y-14.85 Z3.66 F900.0
G1 X20.98 Y-14.85 Z3.66 F900.0
G1 X21.49 Y-14.71 Z3.66 F900.0
G1 X21.84 Y-14.36 Z3.66 F900.0
G1 X21.98 Y-13.85 Z3.66 F900.0
G1 X21.98 Y17.2 Z3.66 F900.0
G1 X21.84 Y17.71 Z3.66 F900.0
G1 X21.49 Y18.06 Z3.66 F900.0
G1 X20.98 Y18.2 Z3.66 F900.0
G1 X-19.91 Y18.2 Z3.66 F900.0
G1 X-20.42 Y18.06 Z3.66 F900.0
G1 X-20.77 Y17.71 Z3.66 F900.0
G1 X-20.91 Y17.2 Z3.66 F900.0
G1 X-20.91 Y-13.85 Z3.66 F900.0
G1 X-20.77 Y-14.36 Z3.66 F900.0
G1 X-20.42 Y-14.71 Z3.66 F900.0
G1 X-19.91 Y-14.85 Z3.66 F900.0
G1 X-19.69 Y-14.85 Z3.66 F900.0
M103
(</perimeter>)
(</boundaryPerimeter>)
(<loop> outer )
M108 R1.179
G1 X-19.85 Y-14.43 Z3.66 F1800.0
M101
G1 X-17.41 Y-14.43 Z3.66 F1800.0
G1 X-17.41 Y17.07 Z3.66 F1800.0
G1 X18.49 Y17.07 Z3.66 F1800.0
G1 X18.49 Y-14.43 Z3.66 F1800.0
G1 X20.93 Y-14.43 Z3.66 F1800.0
G1 X21.27 Y-14.34 Z3.66 F1800.0
G1 X21.47 Y-14.14 Z3.66 F1800.0
G1 X21.56 Y-13.79 Z3.66 F1800.0
G1 X21.56 Y17.14 Z3.66 F1800.0
G1 X21.47 Y17.49 Z3.66 F1800.0
G1 X21.27 Y17.68 Z3.66 F1800.0
G1 X20.93 Y17.78 Z3.66 F1800.0
G1 X-19.85 Y17.78 Z3.66 F1800.0
G1 X-20.2 Y17.68 Z3.66 F1800.0
G1 X-20.4 Y17.49 Z3.66 F1800.0
G1 X-20.49 Y17.14 Z3.66 F1800.0
G1 X-20.49 Y-13.79 Z3.66 F1800.0
G1 X-20.4 Y-14.14 Z3.66 F1800.0
G1 X-20.2 Y-14.34 Z3.66 F1800.0
G1 X-19.85 Y-14.43 Z3.66 F1800.0
M103
(</loop>)
G1 X-17.69 Y-13.96 Z3.66 F1800.0
M101
G1 X-20.16 Y-13.96 Z3.66 F1800.0
G1 X-20.22 Y-13.5 Z3.66 F1800.0
G1 X-19.75 Y-13.03 Z3.66 F1800.0
G1 X-18.15 Y-12.57 Z3.66 F1800.0
G1 X-17.69 Y-12.1 Z3.66 F1800.0
G1 X-18.02 Y-11.77 Z3.66 F1800.0
G1 X-17.69 Y-11.64 Z3.66 F1800.0
G1 X-17.87 Y-11.21 Z3.66 F1800.0
G1 X-17.69 Y-10.71 Z3.66 F1800.0
G1 X-18.15 Y-10.24 Z3.66 F1800.0
G1 X-17.69 Y-9.77 Z3.66 F1800.0
G1 X-18.02 Y-9.45 Z3.66 F1800.0
G1 X-17.69 Y-8.84 Z3.66 F1800.0
G1 X-18.15 Y-8.38 Z3.66 F1800.0
G1 X-18.15 Y-7.91 Z3.66 F1800.0
G1 X-17.69 Y-7.45 Z3.66 F1800.0
G1 X-18.15 Y-6.98 Z3.66 F1800.0
G1 X-19.75 Y-6.98 Z3.66 F1800.0
G1 X-20.22 Y-7.45 Z3.66 F1800.0
G1 X-19.75 Y-7.91 Z3.66 F1800.0
G1 X-19.75 Y-8.38 Z3.66 F1800.0
G1 X-20.22 Y-8.84 Z3.66 F1800.0
G1 X-19.75 Y-9.31 Z3.66 F1800.0
G1 X-20.22 Y-9.77 Z3.66 F1800.0
G1 X-19.75 Y-10.24 Z3.66 F1800.0
G1 X-20.22 Y-10.71 Z3.66 F1800.0
M103
G1 X-20.22 Y-6.05 Z3.66 F1800.0
M101
G1 X-17.69 Y-6.05 Z3.66 F1800.0
G1 X-20.22 Y-1.4 Z3.66 F1800.0
G1 X-17.69 Y-1.4 Z3.66 F1800.0
G1 X-20.22 Y3.26 Z3.66 F1800.0
G1 X-17.69 Y3.26 Z3.66 F1800.0
G1 X-20.22 Y7.91 Z3.66 F1800.0
G1 X-17.69 Y7.91 Z3.66 F1800.0
G1 X-20.22 Y12.57 Z3.66 F1800.0
G1 X-17.69 Y12.57 Z3.66 F1800.0
G1 X-20.22 Y16.75 Z3.66 F1800.0
G1 X-20.19 Y17.22 Z3.66 F1800.0
G1 X-17.69 Y17.22 Z3.66 F1800.0
M103
G1 X21.26 Y17.22 Z3.66 F1800.0
M101
G1 X18.76 Y17.22 Z3.66 F1800.0
G1 X18.76 Y16.75 Z3.66 F1800.0
M103
G1 X18.76 Y12.1 Z3.66 F1800.0
M101
G1 X18.76 Y16.29 Z3.66 F1800.0
G1 X20.82 Y15.82 Z3.66 F1800.0
G1 X21.29 Y15.36 Z3.66 F1800.0
G1 X20.82 Y14.89 Z3.66 F1800.0
G1 X20.82 Y14.43 Z3.66 F1800.0
G1 X21.29 Y13.96 Z3.66 F1800.0
G1 X20.82 Y13.5 Z3.66 F1800.0
G1 X20.82 Y13.03 Z3.66 F1800.0
G1 X21.29 Y12.57 Z3.66 F1800.0
M103
G1 X21.29 Y7.91 Z3.66 F1800.0
M101
G1 X20.82 Y8.38 Z3.66 F1800.0
G1 X20.82 Y8.84 Z3.66 F1800.0
G1 X21.29 Y9.31 Z3.66 F1800.0
G1 X20.82 Y9.77 Z3.66 F1800.0
G1 X20.82 Y10.24 Z3.66 F1800.0
G1 X21.29 Y10.71 Z3.66 F1800.0
G1 X20.82 Y11.17 Z3.66 F1800.0
G1 X18.76 Y11.64 Z3.66 F1800.0
G1 X18.76 Y7.45 Z3.66 F1800.0
M103
G1 X18.76 Y2.79 Z3.66 F1800.0
M101
G1 X18.76 Y6.98 Z3.66 F1800.0
G1 X20.82 Y6.52 Z3.66 F1800.0
G1 X21.29 Y6.05 Z3.66 F1800.0
G1 X20.82 Y5.58 Z3.66 F1800.0
G1 X20.82 Y5.12 Z3.66 F1800.0
G1 X21.29 Y4.65 Z3.66 F1800.0
G1 X20.82 Y4.19 Z3.66 F1800.0
G1 X20.82 Y3.72 Z3.66 F1800.0
G1 X21.29 Y3.26 Z3.66 F1800.0
G1 X18.76 Y2.33 Z3.66 F1800.0
G1 X18.76 Y-1.4 Z3.66 F1800.0
G1 X21.29 Y-1.4 Z3.66 F1800.0
M103
G1 X18.76 Y-1.86 Z3.66 F1800.0
M101
G1 X18.76 Y-6.05 Z3.66 F1800.0
G1 X21.29 Y-6.05 Z3.66 F1800.0
M103
G1 X21.29 Y-10.71 Z3.66 F1800.0
M101
G1 X20.82 Y-10.24 Z3.66 F1800.0
G1 X20.82 Y-9.77 Z3.66 F1800.0
G1 X21.29 Y-9.31 Z3.66 F1800.0
G1 X20.82 Y-8.84 Z3.66 F1800.0
G1 X20.82 Y-8.38 Z3.66 F1800.0
G1 X21.29 Y-7.91 Z3.66 F1800.0
G1 X20.82 Y-7.45 Z3.66 F1800.0
G1 X18.76 Y-6.52 Z3.66 F1800.0
G1 X18.76 Y-13.96 Z3.66 F1800.0
G1 X21.23 Y-13.96 Z3.66 F1800.0
M103
(</surroundingLoop>)
(</layer>)
(<layer> 3.96 )
(<surroundingLoop>)
(<boundaryPerimeter>)
(<boundaryPoint> X-16.787 Y16.437 Z3.96 </boundaryPoint>)
(<boundaryPoint> X17.859 Y16.437 Z3.96 </boundaryPoint>)
(<boundaryPoint> X17.859 Y-15.059 Z3.96 </boundaryPoint>)
(<boundaryPoint> X21.008 Y-15.059 Z3.96 </boundaryPoint>)
(<boundaryPoint> X21.599 Y-14.901 Z3.96 </boundaryPoint>)
(<boundaryPoint> X22.031 Y-14.469 Z3.96 </boundaryPoint>)
(<boundaryPoint> X22.189 Y-13.878 Z3.96 </boundaryPoint>)
(<boundaryPoint> X22.189 Y17.224 Z3.96 </boundaryPoint>)
(<boundaryPoint> X22.031 Y17.815 Z3.96 </boundaryPoint>)
(<boundaryPoint> X21.599 Y18.247 Z3.96 </boundaryPoint>)
(<boundaryPoint> X21.008 Y18.406 Z3.96 </boundaryPoint>)
(<boundaryPoint> X-19.937 Y18.406 Z3.96 </boundaryPoint>)
(<boundaryPoint> X-20.527 Y18.247 Z3.96 </boundaryPoint>)
(<boundaryPoint> X-20.959 Y17.815 Z3.96 </boundaryPoint>)
(<boundaryPoint> X-21.118 Y17.224 Z3.96 </boundaryPoint>)
(<boundaryPoint> X-21.118 Y-13.878 Z3.96 </boundaryPoint>)
(<boundaryPoint> X-20.959 Y-14.469 Z3.96 </boundaryPoint>)
(<boundaryPoint> X-20.527 Y-14.901 Z3.96 </boundaryPoint>)
(<boundaryPoint> X-19.937 Y-15.059 Z3.96 </boundaryPoint>)
(<boundaryPoint> X-16.787 Y-15.059 Z3.96 </boundaryPoint>)
(<perimeter> outer )
M108 R0.5897
G1 X21.9 Y-14.14 Z3.96 F1800.0
M101
G1 X21.98 Y-13.85 Z3.96 F900.0
G1 X21.98 Y17.2 Z3.96 F900.0
G1 X21.84 Y17.71 Z3.96 F900.0
G1 X21.49 Y18.06 Z3.96 F900.0
G1 X20.98 Y18.2 Z3.96 F900.0
G1 X-19.91 Y18.2 Z3.96 F900.0
G1 X-20.42 Y18.06 Z3.96 F900.0
G1 X-20.77 Y17.71 Z3.96 F900.0
G1 X-20.91 Y17.2 Z3.96 F900.0
G1 X-20.91 Y-13.85 Z3.96 F900.0
G1 X-20.77 Y-14.36 Z3.96 F900.0
G1 X-20.42 Y-14.71 Z3.96 F900.0
G1 X-19.91 Y-14.85 Z3.96 F900.0
G1 X-17.0 Y-14.85 Z3.96 F900.0
G1 X-17.0 Y16.65 Z3.96 F900.0
G1 X18.07 Y16.65 Z3.96 F900.0
G1 X18.07 Y-14.85 Z3.96 F900.0
G1 X20.98 Y-14.85 Z3.96 F900.0
G1 X21.49 Y-14.71 Z3.96 F900.0
G1 X21.84 Y-14.36 Z3.96 F900.0
G1 X21.9 Y-14.14 Z3.96 F900.0
M103
(</perimeter>)
(</boundaryPerimeter>)
(<loop> outer )
M108 R1.179
G1 X21.47 Y-14.14 Z3.96 F1800.0
M101
G1 X21.56 Y-13.79 Z3.96 F1800.0
G1 X21.56 Y17.14 Z3.96 F1800.0
G1 X21.47 Y17.49 Z3.96 F1800.0
G1 X21.27 Y17.68 Z3.96 F1800.0
G1 X20.93 Y17.78 Z3.96 F1800.0
G1 X-19.85 Y17.78 Z3.96 F1800.0
G1 X-20.2 Y17.68 Z3.96 F1800.0
G1 X-20.4 Y17.49 Z3.96 F1800.0
G1 X-20.49 Y17.14 Z3.96 F1800.0
G1 X-20.49 Y-13.79 Z3.96 F1800.0
G1 X-20.4 Y-14.14 Z3.96 F1800.0
G1 X-20.2 Y-14.34 Z3.96 F1800.0
G1 X-19.85 Y-14.43 Z3.96 F1800.0
G1 X-17.41 Y-14.43 Z3.96 F1800.0
G1 X-17.41 Y17.07 Z3.96 F1800.0
G1 X18.49 Y17.07 Z3.96 F1800.0
G1 X18.49 Y-14.43 Z3.96 F1800.0
G1 X20.93 Y-14.43 Z3.96 F1800.0
G1 X21.27 Y-14.34 Z3.96 F1800.0
G1 X21.47 Y-14.14 Z3.96 F1800.0
M103
(</loop>)
G1 X20.94 Y-14.14 Z3.96 F1800.0
M101
G1 X20.94 Y17.49 Z3.96 F1800.0
G1 X19.24 Y17.07 Z3.96 F1800.0
G1 X18.62 Y17.34 Z3.96 F1800.0
G1 X18.62 Y17.5 Z3.96 F1800.0
G1 X18.15 Y17.34 Z3.96 F1800.0
G1 X18.15 Y17.5 Z3.96 F1800.0
G1 X17.69 Y17.34 Z3.96 F1800.0
G1 X17.69 Y17.5 Z3.96 F1800.0
G1 X17.22 Y17.34 Z3.96 F1800.0
G1 X17.22 Y17.5 Z3.96 F1800.0
G1 X16.75 Y17.34 Z3.96 F1800.0
G1 X16.75 Y17.5 Z3.96 F1800.0
G1 X16.29 Y17.34 Z3.96 F1800.0
G1 X16.29 Y17.5 Z3.96 F1800.0
G1 X15.82 Y17.34 Z3.96 F1800.0
G1 X15.82 Y17.5 Z3.96 F1800.0
G1 X15.36 Y17.34 Z3.96 F1800.0
G1 X15.36 Y17.5 Z3.96 F1800.0
G1 X14.89 Y17.34 Z3.96 F1800.0
G1 X14.89 Y17.5 Z3.96 F1800.0
G1 X14.43 Y17.34 Z3.96 F1800.0
G1 X14.43 Y17.5 Z3.96 F1800.0
G1 X13.96 Y17.34 Z3.96 F1800.0
G1 X13.96 Y17.5 Z3.96 F1800.0
G1 X13.5 Y17.34 Z3.96 F1800.0
G1 X13.5 Y17.5 Z3.96 F1800.0
G1 X13.03 Y17.34 Z3.96 F1800.0
G1 X13.03 Y17.5 Z3.96 F1800.0
G1 X12.57 Y17.34 Z3.96 F1800.0
G1 X12.57 Y17.5 Z3.96 F1800.0
G1 X12.1 Y17.34 Z3.96 F1800.0
G1 X12.1 Y17.5 Z3.96 F1800.0
G1 X11.64 Y17.34 Z3.96 F1800.0
G1 X11.64 Y17.5 Z3.96 F1800.0
G1 X11.17 Y17.34 Z3.96 F1800.0
G1 X11.17 Y17.5 Z3.96 F1800.0
G1 X10.71 Y17.34 Z3.96 F1800.0
G1 X10.71 Y17.5 Z3.96 F1800.0
G1 X10.24 Y17.34 Z3.96 F1800.0
G1 X10.24 Y17.5 Z3.96 F1800.0
G1 X9.77 Y17.34 Z3.96 F1800.0
G1 X9.77 Y17.5 Z3.96 F1800.0
G1 X9.31 Y17.34 Z3.96 F1800.0
G1 X9.31 Y17.5 Z3.96 F1800.0
G1 X8.84 Y17.34 Z3.96 F1800.0
G1 X8.84 Y17.5 Z3.96 F1800.0
G1 X8.38 Y17.34 Z3.96 F1800.0
G1 X8.38 Y17.5 Z3.96 F1800.0
G1 X7.91 Y17.34 Z3.96 F1800.0
G1 X7.91 Y17.5 Z3.96 F1800.0
G1 X7.45 Y17.34 Z3.96 F1800.0
G1 X7.45 Y17.5 Z3.96 F1800.0
G1 X6.98 Y17.34 Z3.96 F1800.0
G1 X6.98 Y17.5 Z3.96 F1800.0
G1 X6.52 Y17.34 Z3.96 F1800.0
G1 X6.52 Y17.5 Z3.96 F1800.0
G1 X6.05 Y17.34 Z3.96 F1800.0
G1 X6.05 Y17.5 Z3.96 F1800.0
G1 X5.58 Y17.34 Z3.96 F1800.0
G1 X5.58 Y17.5 Z3.96 F1800.0
G1 X5.12 Y17.34 Z3.96 F1800.0
G1 X5.12 Y17.5 Z3.96 F1800.0
G1 X4.65 Y17.34 Z3.96 F1800.0
G1 X4.65 Y17.5 Z3.96 F1800.0
G1 X4.19 Y17.34 Z3.96 F1800.0
G1 X4.19 Y17.5 Z3.96 F1800.0
G1 X3.72 Y17.34 Z3.96 F1800.0
G1 X3.72 Y17.5 Z3.96 F1800.0
G1 X3.26 Y17.34 Z3.96 F1800.0
G1 X3.26 Y17.5 Z3.96 F1800.0
G1 X2.79 Y17.34 Z3.96 F1800.0
G1 X2.79 Y17.5 Z3.96 F1800.0
G1 X2.33 Y17.34 Z3.96 F1800.0
G1 X2.33 Y17.5 Z3.96 F1800.0
G1 X1.86 Y17.34 Z3.96 F1800.0
G1 X1.86 Y17.5 Z3.96 F1800.0
G1 X1.4 Y17.34 Z3.96 F1800.0
G1 X1.4 Y17.5 Z3.96 F1800.0
G1 X0.93 Y17.34 Z3.96 F1800.0
G1 X0.93 Y17.5 Z3.96 F1800.0
G1 X0.47 Y17.34 Z3.96 F1800.0
G1 X0.47 Y17.5 Z3.96 F1800.0
G1 X0.0 Y17.34 Z3.96 F1800.0
G1 X0.0 Y17.5 Z3.96 F1800.0
G1 X-0.47 Y17.34 Z3.96 F1800.0
G1 X-0.47 Y17.5 Z3.96 F1800.0
G1 X-0.93 Y17.34 Z3.96 F1800.0
G1 X-0.93 Y17.5 Z3.96 F1800.0
G1 X-1.4 Y17.34 Z3.96 F1800.0
G1 X-1.4 Y17.5 Z3.96 F1800.0
G1 X-1.86 Y17.34 Z3.96 F1800.0
G1 X-1.86 Y17.5 Z3.96 F1800.0
G1 X-2.33 Y17.34 Z3.96 F1800.0
G1 X-2.33 Y17.5 Z3.96 F1800.0
G1 X-2.79 Y17.34 Z3.96 F1800.0
G1 X-2.79 Y17.5 Z3.96 F1800.0
G1 X-3.26 Y17.34 Z3.96 F1800.0
G1 X-3.26 Y17.5 Z3.96 F1800.0
G1 X-3.72 Y17.34 Z3.96 F1800.0
G1 X-3.72 Y17.5 Z3.96 F1800.0
G1 X-4.19 Y17.34 Z3.96 F1800.0
G1 X-4.19 Y17.5 Z3.96 F1800.0
G1 X-4.65 Y17.34 Z3.96 F1800.0
G1 X-4.65 Y17.5 Z3.96 F1800.0
G1 X-5.12 Y17.34 Z3.96 F1800.0
G1 X-5.12 Y17.5 Z3.96 F1800.0
G1 X-5.58 Y17.34 Z3.96 F1800.0
G1 X-5.58 Y17.5 Z3.96 F1800.0
G1 X-6.05 Y17.34 Z3.96 F1800.0
G1 X-6.05 Y17.5 Z3.96 F1800.0
G1 X-6.52 Y17.34 Z3.96 F1800.0
G1 X-6.52 Y17.5 Z3.96 F1800.0
G1 X-6.98 Y17.34 Z3.96 F1800.0
G1 X-6.98 Y17.5 Z3.96 F1800.0
G1 X-7.45 Y17.34 Z3.96 F1800.0
G1 X-7.45 Y17.5 Z3.96 F1800.0
G1 X-7.91 Y17.34 Z3.96 F1800.0
G1 X-7.91 Y17.5 Z3.96 F1800.0
G1 X-8.38 Y17.34 Z3.96 F1800.0
G1 X-8.38 Y17.5 Z3.96 F1800.0
G1 X-8.84 Y17.34 Z3.96 F1800.0
G1 X-8.84 Y17.5 Z3.96 F1800.0
G1 X-9.31 Y17.34 Z3.96 F1800.0
G1 X-9.31 Y17.5 Z3.96 F1800.0
G1 X-9.77 Y17.34 Z3.96 F1800.0
G1 X-9.77 Y17.5 Z3.96 F1800.0
G1 X-10.24 Y17.34 Z3.96 F1800.0
G1 X-10.24 Y17.5 Z3.96 F1800.0
G1 X-10.71 Y17.34 Z3.96 F1800.0
G1 X-10.71 Y17.5 Z3.96 F1800.0
G1 X-11.17 Y17.34 Z3.96 F1800.0
G1 X-11.17 Y17.5 Z3.96 F1800.0
G1 X-11.64 Y17.34 Z3.96 F1800.0
G1 X-11.64 Y17.5 Z3.96 F1800.0
G1 X-12.1 Y17.34 Z3.96 F1800.0
G1 X-12.1 Y17.5 Z3.96 F1800.0
G1 X-12.57 Y17.34 Z3.96 F1800.0
G1 X-12.57 Y17.5 Z3.96 F1800.0
G1 X-13.03 Y17.34 Z3.96 F1800.0
G1 X-13.03 Y17.5 Z3.96 F1800.0
G1 X-13.5 Y17.34 Z3.96 F1800.0
G1 X-13.5 Y17.5 Z3.96 F1800.0
G1 X-13.96 Y17.34 Z3.96 F1800.0
G1 X-13.96 Y17.5 Z3.96 F1800.0
G1 X-14.43 Y17.34 Z3.96 F1800.0
G1 X-14.43 Y17.5 Z3.96 F1800.0
G1 X-14.89 Y17.34 Z3.96 F1800.0
G1 X-14.89 Y17.5 Z3.96 F1800.0
G1 X-15.36 Y17.34 Z3.96 F1800.0
G1 X-15.36 Y17.5 Z3.96 F1800.0
G1 X-15.82 Y17.34 Z3.96 F1800.0
G1 X-15.82 Y17.5 Z3.96 F1800.0
G1 X-16.29 Y17.34 Z3.96 F1800.0
G1 X-16.29 Y17.5 Z3.96 F1800.0
G1 X-16.75 Y17.34 Z3.96 F1800.0
G1 X-16.75 Y17.5 Z3.96 F1800.0
G1 X-17.22 Y17.34 Z3.96 F1800.0
G1 X-17.22 Y17.5 Z3.96 F1800.0
G1 X-17.69 Y17.34 Z3.96 F1800.0
G1 X-17.69 Y17.5 Z3.96 F1800.0
M103
G1 X-20.01 Y17.45 Z3.96 F1800.0
M101
G1 X-20.01 Y-14.11 Z3.96 F1800.0
M103
(</surroundingLoop>)
(</layer>)
(<layer> 4.26 )
(<surroundingLoop>)
(<boundaryPerimeter>)
(<boundaryPoint> X-16.787 Y16.437 Z4.26 </boundaryPoint>)
(<boundaryPoint> X17.859 Y16.437 Z4.26 </boundaryPoint>)
(<boundaryPoint> X17.859 Y-15.059 Z4.26 </boundaryPoint>)
(<boundaryPoint> X21.008 Y-15.059 Z4.26 </boundaryPoint>)
(<boundaryPoint> X21.599 Y-14.901 Z4.26 </boundaryPoint>)
(<boundaryPoint> X22.031 Y-14.469 Z4.26 </boundaryPoint>)
(<boundaryPoint> X22.189 Y-13.878 Z4.26 </boundaryPoint>)
(<boundaryPoint> X22.189 Y17.224 Z4.26 </boundaryPoint>)
(<boundaryPoint> X22.031 Y17.815 Z4.26 </boundaryPoint>)
(<boundaryPoint> X21.599 Y18.247 Z4.26 </boundaryPoint>)
(<boundaryPoint> X21.008 Y18.406 Z4.26 </boundaryPoint>)
(<boundaryPoint> X-19.937 Y18.406 Z4.26 </boundaryPoint>)
(<boundaryPoint> X-20.527 Y18.247 Z4.26 </boundaryPoint>)
(<boundaryPoint> X-20.959 Y17.815 Z4.26 </boundaryPoint>)
(<boundaryPoint> X-21.118 Y17.224 Z4.26 </boundaryPoint>)
(<boundaryPoint> X-21.118 Y-13.878 Z4.26 </boundaryPoint>)
(<boundaryPoint> X-20.959 Y-14.469 Z4.26 </boundaryPoint>)
(<boundaryPoint> X-20.527 Y-14.901 Z4.26 </boundaryPoint>)
(<boundaryPoint> X-19.937 Y-15.059 Z4.26 </boundaryPoint>)
(<boundaryPoint> X-16.787 Y-15.059 Z4.26 </boundaryPoint>)
(<perimeter> outer )
M108 R0.5897
G1 X-20.19 Y-14.77 Z4.26 F1800.0
M101
G1 X-19.91 Y-14.85 Z4.26 F900.0
G1 X-17.0 Y-14.85 Z4.26 F900.0
G1 X-17.0 Y16.65 Z4.26 F900.0
G1 X18.07 Y16.65 Z4.26 F900.0
G1 X18.07 Y-14.85 Z4.26 F900.0
G1 X20.98 Y-14.85 Z4.26 F900.0
G1 X21.49 Y-14.71 Z4.26 F900.0
G1 X21.84 Y-14.36 Z4.26 F900.0
G1 X21.98 Y-13.85 Z4.26 F900.0
G1 X21.98 Y17.2 Z4.26 F900.0
G1 X21.84 Y17.71 Z4.26 F900.0
G1 X21.49 Y18.06 Z4.26 F900.0
G1 X20.98 Y18.2 Z4.26 F900.0
G1 X-19.91 Y18.2 Z4.26 F900.0
G1 X-20.42 Y18.06 Z4.26 F900.0
G1 X-20.77 Y17.71 Z4.26 F900.0
G1 X-20.91 Y17.2 Z4.26 F900.0
G1 X-20.91 Y-13.85 Z4.26 F900.0
G1 X-20.77 Y-14.36 Z4.26 F900.0
G1 X-20.42 Y-14.71 Z4.26 F900.0
G1 X-20.19 Y-14.77 Z4.26 F900.0
M103
(</perimeter>)
(</boundaryPerimeter>)
(<loop> outer )
M108 R1.179
G1 X-20.2 Y-14.34 Z4.26 F1800.0
M101
G1 X-19.85 Y-14.43 Z4.26 F1800.0
G1 X-17.41 Y-14.43 Z4.26 F1800.0
G1 X-17.41 Y17.07 Z4.26 F1800.0
G1 X18.49 Y17.07 Z4.26 F1800.0
G1 X18.49 Y-14.43 Z4.26 F1800.0
G1 X20.93 Y-14.43 Z4.26 F1800.0
G1 X21.27 Y-14.34 Z4.26 F1800.0
G1 X21.47 Y-14.14 Z4.26 F1800.0
G1 X21.56 Y-13.79 Z4.26 F1800.0
G1 X21.56 Y17.14 Z4.26 F1800.0
G1 X21.47 Y17.49 Z4.26 F1800.0
G1 X21.27 Y17.68 Z4.26 F1800.0
G1 X20.93 Y17.78 Z4.26 F1800.0
G1 X-19.85 Y17.78 Z4.26 F1800.0
G1 X-20.2 Y17.68 Z4.26 F1800.0
G1 X-20.4 Y17.49 Z4.26 F1800.0
G1 X-20.49 Y17.14 Z4.26 F1800.0
G1 X-20.49 Y-13.79 Z4.26 F1800.0
G1 X-20.4 Y-14.14 Z4.26 F1800.0
G1 X-20.2 Y-14.34 Z4.26 F1800.0
M103
(</loop>)
G1 X-17.69 Y-13.96 Z4.26 F1800.0
M101
G1 X-20.16 Y-13.96 Z4.26 F1800.0
G1 X-20.22 Y-13.5 Z4.26 F1800.0
G1 X-19.75 Y-13.03 Z4.26 F1800.0
G1 X-18.15 Y-12.57 Z4.26 F1800.0
G1 X-17.69 Y-12.1 Z4.26 F1800.0
G1 X-18.02 Y-11.77 Z4.26 F1800.0
G1 X-17.69 Y-11.64 Z4.26 F1800.0
G1 X-17.87 Y-11.21 Z4.26 F1800.0
G1 X-17.69 Y-10.71 Z4.26 F1800.0
G1 X-18.15 Y-10.24 Z4.26 F1800.0
G1 X-17.69 Y-9.77 Z4.26 F1800.0
G1 X-18.02 Y-9.45 Z4.26 F1800.0
G1 X-17.69 Y-8.84 Z4.26 F1800.0
G1 X-18.15 Y-8.38 Z4.26 F1800.0
G1 X-18.15 Y-7.91 Z4.26 F1800.0
G1 X-17.69 Y-7.45 Z4.26 F1800.0
G1 X-18.15 Y-6.98 Z4.26 F1800.0
G1 X-19.75 Y-6.98 Z4.26 F1800.0
G1 X-20.22 Y-7.45 Z4.26 F1800.0
G1 X-19.75 Y-7.91 Z4.26 F1800.0
G1 X-19.75 Y-8.38 Z4.26 F1800.0
G1 X-20.22 Y-8.84 Z4.26 F1800.0
G1 X-19.75 Y-9.31 Z4.26 F1800.0
G1 X-20.22 Y-9.77 Z4.26 F1800.0
G1 X-19.75 Y-10.24 Z4.26 F1800.0
G1 X-20.22 Y-10.71 Z4.26 F1800.0
M103
G1 X-20.22 Y-6.05 Z4.26 F1800.0
M101
G1 X-17.69 Y-6.05 Z4.26 F1800.0
G1 X-20.22 Y-1.4 Z4.26 F1800.0
G1 X-17.69 Y-1.4 Z4.26 F1800.0
G1 X-20.22 Y3.26 Z4.26 F1800.0
G1 X-17.69 Y3.26 Z4.26 F1800.0
G1 X-20.22 Y7.91 Z4.26 F1800.0
G1 X-17.69 Y7.91 Z4.26 F1800.0
G1 X-20.22 Y12.57 Z4.26 F1800.0
G1 X-17.69 Y12.57 Z4.26 F1800.0
G1 X-20.22 Y16.75 Z4.26 F1800.0
G1 X-20.19 Y17.22 Z4.26 F1800.0
G1 X-17.69 Y17.22 Z4.26 F1800.0
M103
G1 X21.26 Y17.22 Z4.26 F1800.0
M101
G1 X18.76 Y17.22 Z4.26 F1800.0
G1 X18.76 Y16.75 Z4.26 F1800.0
M103
G1 X18.76 Y12.1 Z4.26 F1800.0
M101
G1 X18.76 Y16.29 Z4.26 F1800.0
G1 X20.82 Y15.82 Z4.26 F1800.0
G1 X21.29 Y15.36 Z4.26 F1800.0
G1 X20.82 Y14.89 Z4.26 F1800.0
G1 X20.82 Y14.43 Z4.26 F1800.0
G1 X21.29 Y13.96 Z4.26 F1800.0
G1 X20.82 Y13.5 Z4.26 F1800.0
G1 X20.82 Y13.03 Z4.26 F1800.0
G1 X21.29 Y12.57 Z4.26 F1800.0
M103
G1 X21.29 Y7.91 Z4.26 F1800.0
M101
G1 X20.82 Y8.38 Z4.26 F1800.0
G1 X20.82 Y8.84 Z4.26 F1800.0
G1 X21.29 Y9.31 Z4.26 F1800.0
G1 X20.82 Y9.77 Z4.26 F1800.0
G1 X20.82 Y10.24 Z4.26 F1800.0
G1 X21.29 Y10.71 Z4.26 F1800.0
G1 X20.82 Y11.17 Z4.26 F1800.0
G1 X18.76 Y11.64 Z4.26 F1800.0
G1 X18.76 Y7.45 Z4.26 F1800.0
M103
G1 X18.76 Y2.79 Z4.26 F1800.0
M101
G1 X18.76 Y6.98 Z4.26 F1800.0
G1 X20.82 Y6.52 Z4.26 F1800.0
G1 X21.29 Y6.05 Z4.26 F1800.0
G1 X20.82 Y5.58 Z4.26 F1800.0
G1 X20.82 Y5.12 Z4.26 F1800.0
G1 X21.29 Y4.65 Z4.26 F1800.0
G1 X20.82 Y4.19 Z4.26 F1800.0
G1 X20.82 Y3.72 Z4.26 F1800.0
G1 X21.29 Y3.26 Z4.26 F1800.0
G1 X18.76 Y2.33 Z4.26 F1800.0
G1 X18.76 Y-1.4 Z4.26 F1800.0
G1 X21.29 Y-1.4 Z4.26 F1800.0
M103
G1 X18.76 Y-1.86 Z4.26 F1800.0
M101
G1 X18.76 Y-6.05 Z4.26 F1800.0
G1 X21.29 Y-6.05 Z4.26 F1800.0
M103
G1 X21.29 Y-10.71 Z4.26 F1800.0
M101
G1 X20.82 Y-10.24 Z4.26 F1800.0
G1 X20.82 Y-9.77 Z4.26 F1800.0
G1 X21.29 Y-9.31 Z4.26 F1800.0
G1 X20.82 Y-8.84 Z4.26 F1800.0
G1 X20.82 Y-8.38 Z4.26 F1800.0
G1 X21.29 Y-7.91 Z4.26 F1800.0
G1 X20.82 Y-7.45 Z4.26 F1800.0
G1 X18.76 Y-6.52 Z4.26 F1800.0
G1 X18.76 Y-13.96 Z4.26 F1800.0
G1 X21.23 Y-13.96 Z4.26 F1800.0
M103
(</surroundingLoop>)
(</layer>)
(<layer> 4.56 )
(<surroundingLoop>)
(<boundaryPerimeter>)
(<boundaryPoint> X-16.787 Y16.437 Z4.56 </boundaryPoint>)
(<boundaryPoint> X17.859 Y16.437 Z4.56 </boundaryPoint>)
(<boundaryPoint> X17.859 Y-15.059 Z4.56 </boundaryPoint>)
(<boundaryPoint> X21.008 Y-15.059 Z4.56 </boundaryPoint>)
(<boundaryPoint> X21.599 Y-14.901 Z4.56 </boundaryPoint>)
(<boundaryPoint> X22.031 Y-14.469 Z4.56 </boundaryPoint>)
(<boundaryPoint> X22.189 Y-13.878 Z4.56 </boundaryPoint>)
(<boundaryPoint> X22.189 Y17.224 Z4.56 </boundaryPoint>)
(<boundaryPoint> X22.031 Y17.815 Z4.56 </boundaryPoint>)
(<boundaryPoint> X21.599 Y18.247 Z4.56 </boundaryPoint>)
(<boundaryPoint> X21.008 Y18.406 Z4.56 </boundaryPoint>)
(<boundaryPoint> X-19.937 Y18.406 Z4.56 </boundaryPoint>)
(<boundaryPoint> X-20.527 Y18.247 Z4.56 </boundaryPoint>)
(<boundaryPoint> X-20.959 Y17.815 Z4.56 </boundaryPoint>)
(<boundaryPoint> X-21.118 Y17.224 Z4.56 </boundaryPoint>)
(<boundaryPoint> X-21.118 Y-13.878 Z4.56 </boundaryPoint>)
(<boundaryPoint> X-20.959 Y-14.469 Z4.56 </boundaryPoint>)
(<boundaryPoint> X-20.527 Y-14.901 Z4.56 </boundaryPoint>)
(<boundaryPoint> X-19.937 Y-15.059 Z4.56 </boundaryPoint>)
(<boundaryPoint> X-16.787 Y-15.059 Z4.56 </boundaryPoint>)
(<perimeter> outer )
M108 R0.5897
G1 X21.9 Y-14.14 Z4.56 F1800.0
M101
G1 X21.98 Y-13.85 Z4.56 F900.0
G1 X21.98 Y17.2 Z4.56 F900.0
G1 X21.84 Y17.71 Z4.56 F900.0
G1 X21.49 Y18.06 Z4.56 F900.0
G1 X20.98 Y18.2 Z4.56 F900.0
G1 X-19.91 Y18.2 Z4.56 F900.0
G1 X-20.42 Y18.06 Z4.56 F900.0
G1 X-20.77 Y17.71 Z4.56 F900.0
G1 X-20.91 Y17.2 Z4.56 F900.0
G1 X-20.91 Y-13.85 Z4.56 F900.0
G1 X-20.77 Y-14.36 Z4.56 F900.0
G1 X-20.42 Y-14.71 Z4.56 F900.0
G1 X-19.91 Y-14.85 Z4.56 F900.0
G1 X-17.0 Y-14.85 Z4.56 F900.0
G1 X-17.0 Y16.65 Z4.56 F900.0
G1 X18.07 Y16.65 Z4.56 F900.0
G1 X18.07 Y-14.85 Z4.56 F900.0
G1 X20.98 Y-14.85 Z4.56 F900.0
G1 X21.49 Y-14.71 Z4.56 F900.0
G1 X21.84 Y-14.36 Z4.56 F900.0
G1 X21.9 Y-14.14 Z4.56 F900.0
M103
(</perimeter>)
(</boundaryPerimeter>)
(<loop> outer )
M108 R1.179
G1 X21.47 Y-14.14 Z4.56 F1800.0
M101
G1 X21.56 Y-13.79 Z4.56 F1800.0
G1 X21.56 Y17.14 Z4.56 F1800.0
G1 X21.47 Y17.49 Z4.56 F1800.0
G1 X21.27 Y17.68 Z4.56 F1800.0
G1 X20.93 Y17.78 Z4.56 F1800.0
G1 X-19.85 Y17.78 Z4.56 F1800.0
G1 X-20.2 Y17.68 Z4.56 F1800.0
G1 X-20.4 Y17.49 Z4.56 F1800.0
G1 X-20.49 Y17.14 Z4.56 F1800.0
G1 X-20.49 Y-13.79 Z4.56 F1800.0
G1 X-20.4 Y-14.14 Z4.56 F1800.0
G1 X-20.2 Y-14.34 Z4.56 F1800.0
G1 X-19.85 Y-14.43 Z4.56 F1800.0
G1 X-17.41 Y-14.43 Z4.56 F1800.0
G1 X-17.41 Y17.07 Z4.56 F1800.0
G1 X18.49 Y17.07 Z4.56 F1800.0
G1 X18.49 Y-14.43 Z4.56 F1800.0
G1 X20.93 Y-14.43 Z4.56 F1800.0
G1 X21.27 Y-14.34 Z4.56 F1800.0
G1 X21.47 Y-14.14 Z4.56 F1800.0
M103
(</loop>)
G1 X20.94 Y-14.14 Z4.56 F1800.0
M101
G1 X20.94 Y17.49 Z4.56 F1800.0
G1 X19.24 Y17.07 Z4.56 F1800.0
G1 X18.62 Y17.34 Z4.56 F1800.0
G1 X18.62 Y17.5 Z4.56 F1800.0
G1 X18.15 Y17.34 Z4.56 F1800.0
G1 X18.15 Y17.5 Z4.56 F1800.0
G1 X17.69 Y17.34 Z4.56 F1800.0
G1 X17.69 Y17.5 Z4.56 F1800.0
G1 X17.22 Y17.34 Z4.56 F1800.0
G1 X17.22 Y17.5 Z4.56 F1800.0
G1 X16.75 Y17.34 Z4.56 F1800.0
G1 X16.75 Y17.5 Z4.56 F1800.0
G1 X16.29 Y17.34 Z4.56 F1800.0
G1 X16.29 Y17.5 Z4.56 F1800.0
G1 X15.82 Y17.34 Z4.56 F1800.0
G1 X15.82 Y17.5 Z4.56 F1800.0
G1 X15.36 Y17.34 Z4.56 F1800.0
G1 X15.36 Y17.5 Z4.56 F1800.0
G1 X14.89 Y17.34 Z4.56 F1800.0
G1 X14.89 Y17.5 Z4.56 F1800.0
G1 X14.43 Y17.34 Z4.56 F1800.0
G1 X14.43 Y17.5 Z4.56 F1800.0
G1 X13.96 Y17.34 Z4.56 F1800.0
G1 X13.96 Y17.5 Z4.56 F1800.0
G1 X13.5 Y17.34 Z4.56 F1800.0
G1 X13.5 Y17.5 Z4.56 F1800.0
G1 X13.03 Y17.34 Z4.56 F1800.0
G1 X13.03 Y17.5 Z4.56 F1800.0
G1 X12.57 Y17.34 Z4.56 F1800.0
G1 X12.57 Y17.5 Z4.56 F1800.0
G1 X12.1 Y17.34 Z4.56 F1800.0
G1 X12.1 Y17.5 Z4.56 F1800.0
G1 X11.64 Y17.34 Z4.56 F1800.0
G1 X11.64 Y17.5 Z4.56 F1800.0
G1 X11.17 Y17.34 Z4.56 F1800.0
G1 X11.17 Y17.5 Z4.56 F1800.0
G1 X10.71 Y17.34 Z4.56 F1800.0
G1 X10.71 Y17.5 Z4.56 F1800.0
G1 X10.24 Y17.34 Z4.56 F1800.0
G1 X10.24 Y17.5 Z4.56 F1800.0
G1 X9.77 Y17.34 Z4.56 F1800.0
G1 X9.77 Y17.5 Z4.56 F1800.0
G1 X9.31 Y17.34 Z4.56 F1800.0
G1 X9.31 Y17.5 Z4.56 F1800.0
G1 X8.84 Y17.34 Z4.56 F1800.0
G1 X8.84 Y17.5 Z4.56 F1800.0
G1 X8.38 Y17.34 Z4.56 F1800.0
G1 X8.38 Y17.5 Z4.56 F1800.0
G1 X7.91 Y17.34 Z4.56 F1800.0
G1 X7.91 Y17.5 Z4.56 F1800.0
G1 X7.45 Y17.34 Z4.56 F1800.0
G1 X7.45 Y17.5 Z4.56 F1800.0
G1 X6.98 Y17.34 Z4.56 F1800.0
G1 X6.98 Y17.5 Z4.56 F1800.0
G1 X6.52 Y17.34 Z4.56 F1800.0
G1 X6.52 Y17.5 Z4.56 F1800.0
G1 X6.05 Y17.34 Z4.56 F1800.0
G1 X6.05 Y17.5 Z4.56 F1800.0
G1 X5.58 Y17.34 Z4.56 F1800.0
G1 X5.58 Y17.5 Z4.56 F1800.0
G1 X5.12 Y17.34 Z4.56 F1800.0
G1 X5.12 Y17.5 Z4.56 F1800.0
G1 X4.65 Y17.34 Z4.56 F1800.0
G1 X4.65 Y17.5 Z4.56 F1800.0
G1 X4.19 Y17.34 Z4.56 F1800.0
G1 X4.19 Y17.5 Z4.56 F1800.0
G1 X3.72 Y17.34 Z4.56 F1800.0
G1 X3.72 Y17.5 Z4.56 F1800.0
G1 X3.26 Y17.34 Z4.56 F1800.0
G1 X3.26 Y17.5 Z4.56 F1800.0
G1 X2.79 Y17.34 Z4.56 F1800.0
G1 X2.79 Y17.5 Z4.56 F1800.0
G1 X2.33 Y17.34 Z4.56 F1800.0
G1 X2.33 Y17.5 Z4.56 F1800.0
G1 X1.86 Y17.34 Z4.56 F1800.0
G1 X1.86 Y17.5 Z4.56 F1800.0
G1 X1.4 Y17.34 Z4.56 F1800.0
G1 X1.4 Y17.5 Z4.56 F1800.0
G1 X0.93 Y17.34 Z4.56 F1800.0
G1 X0.93 Y17.5 Z4.56 F1800.0
G1 X0.47 Y17.34 Z4.56 F1800.0
G1 X0.47 Y17.5 Z4.56 F1800.0
G1 X0.0 Y17.34 Z4.56 F1800.0
G1 X0.0 Y17.5 Z4.56 F1800.0
G1 X-0.47 Y17.34 Z4.56 F1800.0
G1 X-0.47 Y17.5 Z4.56 F1800.0
G1 X-0.93 Y17.34 Z4.56 F1800.0
G1 X-0.93 Y17.5 Z4.56 F1800.0
G1 X-1.4 Y17.34 Z4.56 F1800.0
G1 X-1.4 Y17.5 Z4.56 F1800.0
G1 X-1.86 Y17.34 Z4.56 F1800.0
G1 X-1.86 Y17.5 Z4.56 F1800.0
G1 X-2.33 Y17.34 Z4.56 F1800.0
G1 X-2.33 Y17.5 Z4.56 F1800.0
G1 X-2.79 Y17.34 Z4.56 F1800.0
G1 X-2.79 Y17.5 Z4.56 F1800.0
G1 X-3.26 Y17.34 Z4.56 F1800.0
G1 X-3.26 Y17.5 Z4.56 F1800.0
G1 X-3.72 Y17.34 Z4.56 F1800.0
G1 X-3.72 Y17.5 Z4.56 F1800.0
G1 X-4.19 Y17.34 Z4.56 F1800.0
G1 X-4.19 Y17.5 Z4.56 F1800.0
G1 X-4.65 Y17.34 Z4.56 F1800.0
G1 X-4.65 Y17.5 Z4.56 F1800.0
G1 X-5.12 Y17.34 Z4.56 F1800.0
G1 X-5.12 Y17.5 Z4.56 F1800.0
G1 X-5.58 Y17.34 Z4.56 F1800.0
G1 X-5.58 Y17.5 Z4.56 F1800.0
G1 X-6.05 Y17.34 Z4.56 F1800.0
G1 X-6.05 Y17.5 Z4.56 F1800.0
G1 X-6.52 Y17.34 Z4.56 F1800.0
G1 X-6.52 Y17.5 Z4.56 F1800.0
G1 X-6.98 Y17.34 Z4.56 F1800.0
G1 X-6.98 Y17.5 Z4.56 F1800.0
G1 X-7.45 Y17.34 Z4.56 F1800.0
G1 X-7.45 Y17.5 Z4.56 F1800.0
G1 X-7.91 Y17.34 Z4.56 F1800.0
G1 X-7.91 Y17.5 Z4.56 F1800.0
G1 X-8.38 Y17.34 Z4.56 F1800.0
G1 X-8.38 Y17.5 Z4.56 F1800.0
G1 X-8.84 Y17.34 Z4.56 F1800.0
G1 X-8.84 Y17.5 Z4.56 F1800.0
G1 X-9.31 Y17.34 Z4.56 F1800.0
G1 X-9.31 Y17.5 Z4.56 F1800.0
G1 X-9.77 Y17.34 Z4.56 F1800.0
G1 X-9.77 Y17.5 Z4.56 F1800.0
G1 X-10.24 Y17.34 Z4.56 F1800.0
G1 X-10.24 Y17.5 Z4.56 F1800.0
G1 X-10.71 Y17.34 Z4.56 F1800.0
G1 X-10.71 Y17.5 Z4.56 F1800.0
G1 X-11.17 Y17.34 Z4.56 F1800.0
G1 X-11.17 Y17.5 Z4.56 F1800.0
G1 X-11.64 Y17.34 Z4.56 F1800.0
G1 X-11.64 Y17.5 Z4.56 F1800.0
G1 X-12.1 Y17.34 Z4.56 F1800.0
G1 X-12.1 Y17.5 Z4.56 F1800.0
G1 X-12.57 Y17.34 Z4.56 F1800.0
G1 X-12.57 Y17.5 Z4.56 F1800.0
G1 X-13.03 Y17.34 Z4.56 F1800.0
G1 X-13.03 Y17.5 Z4.56 F1800.0
G1 X-13.5 Y17.34 Z4.56 F1800.0
G1 X-13.5 Y17.5 Z4.56 F1800.0
G1 X-13.96 Y17.34 Z4.56 F1800.0
G1 X-13.96 Y17.5 Z4.56 F1800.0
G1 X-14.43 Y17.34 Z4.56 F1800.0
G1 X-14.43 Y17.5 Z4.56 F1800.0
G1 X-14.89 Y17.34 Z4.56 F1800.0
G1 X-14.89 Y17.5 Z4.56 F1800.0
G1 X-15.36 Y17.34 Z4.56 F1800.0
G1 X-15.36 Y17.5 Z4.56 F1800.0
G1 X-15.82 Y17.34 Z4.56 F1800.0
G1 X-15.82 Y17.5 Z4.56 F1800.0
G1 X-16.29 Y17.34 Z4.56 F1800.0
G1 X-16.29 Y17.5 Z4.56 F1800.0
G1 X-16.75 Y17.34 Z4.56 F1800.0
G1 X-16.75 Y17.5 Z4.56 F1800.0
G1 X-17.22 Y17.34 Z4.56 F1800.0
G1 X-17.22 Y17.5 Z4.56 F1800.0
G1 X-17.69 Y17.34 Z4.56 F1800.0
G1 X-17.69 Y17.5 Z4.56 F1800.0
M103
G1 X-20.01 Y17.45 Z4.56 F1800.0
M101
G1 X-20.01 Y-14.11 Z4.56 F1800.0
M103
(</surroundingLoop>)
(</layer>)
(<layer> 4.86 )
(<surroundingLoop>)
(<boundaryPerimeter>)
(<boundaryPoint> X-16.787 Y16.437 Z4.86 </boundaryPoint>)
(<boundaryPoint> X17.859 Y16.437 Z4.86 </boundaryPoint>)
(<boundaryPoint> X17.859 Y-15.059 Z4.86 </boundaryPoint>)
(<boundaryPoint> X21.008 Y-15.059 Z4.86 </boundaryPoint>)
(<boundaryPoint> X21.599 Y-14.901 Z4.86 </boundaryPoint>)
(<boundaryPoint> X22.031 Y-14.469 Z4.86 </boundaryPoint>)
(<boundaryPoint> X22.189 Y-13.878 Z4.86 </boundaryPoint>)
(<boundaryPoint> X22.189 Y17.224 Z4.86 </boundaryPoint>)
(<boundaryPoint> X22.031 Y17.815 Z4.86 </boundaryPoint>)
(<boundaryPoint> X21.599 Y18.247 Z4.86 </boundaryPoint>)
(<boundaryPoint> X21.008 Y18.406 Z4.86 </boundaryPoint>)
(<boundaryPoint> X-19.937 Y18.406 Z4.86 </boundaryPoint>)
(<boundaryPoint> X-20.527 Y18.247 Z4.86 </boundaryPoint>)
(<boundaryPoint> X-20.959 Y17.815 Z4.86 </boundaryPoint>)
(<boundaryPoint> X-21.118 Y17.224 Z4.86 </boundaryPoint>)
(<boundaryPoint> X-21.118 Y-13.878 Z4.86 </boundaryPoint>)
(<boundaryPoint> X-20.959 Y-14.469 Z4.86 </boundaryPoint>)
(<boundaryPoint> X-20.527 Y-14.901 Z4.86 </boundaryPoint>)
(<boundaryPoint> X-19.937 Y-15.059 Z4.86 </boundaryPoint>)
(<boundaryPoint> X-16.787 Y-15.059 Z4.86 </boundaryPoint>)
(<perimeter> outer )
M108 R0.5897
G1 X-20.19 Y-14.77 Z4.86 F1800.0
M101
G1 X-19.91 Y-14.85 Z4.86 F900.0
G1 X-17.0 Y-14.85 Z4.86 F900.0
G1 X-17.0 Y16.65 Z4.86 F900.0
G1 X18.07 Y16.65 Z4.86 F900.0
G1 X18.07 Y-14.85 Z4.86 F900.0
G1 X20.98 Y-14.85 Z4.86 F900.0
G1 X21.49 Y-14.71 Z4.86 F900.0
G1 X21.84 Y-14.36 Z4.86 F900.0
G1 X21.98 Y-13.85 Z4.86 F900.0
G1 X21.98 Y17.2 Z4.86 F900.0
G1 X21.84 Y17.71 Z4.86 F900.0
G1 X21.49 Y18.06 Z4.86 F900.0
G1 X20.98 Y18.2 Z4.86 F900.0
G1 X-19.91 Y18.2 Z4.86 F900.0
G1 X-20.42 Y18.06 Z4.86 F900.0
G1 X-20.77 Y17.71 Z4.86 F900.0
G1 X-20.91 Y17.2 Z4.86 F900.0
G1 X-20.91 Y-13.85 Z4.86 F900.0
G1 X-20.77 Y-14.36 Z4.86 F900.0
G1 X-20.42 Y-14.71 Z4.86 F900.0
G1 X-20.19 Y-14.77 Z4.86 F900.0
M103
(</perimeter>)
(</boundaryPerimeter>)
(<loop> outer )
M108 R1.179
G1 X-20.2 Y-14.34 Z4.86 F1800.0
M101
G1 X-19.85 Y-14.43 Z4.86 F1800.0
G1 X-17.41 Y-14.43 Z4.86 F1800.0
G1 X-17.41 Y17.07 Z4.86 F1800.0
G1 X18.49 Y17.07 Z4.86 F1800.0
G1 X18.49 Y-14.43 Z4.86 F1800.0
G1 X20.93 Y-14.43 Z4.86 F1800.0
G1 X21.27 Y-14.34 Z4.86 F1800.0
G1 X21.47 Y-14.14 Z4.86 F1800.0
G1 X21.56 Y-13.79 Z4.86 F1800.0
G1 X21.56 Y17.14 Z4.86 F1800.0
G1 X21.47 Y17.49 Z4.86 F1800.0
G1 X21.27 Y17.68 Z4.86 F1800.0
G1 X20.93 Y17.78 Z4.86 F1800.0
G1 X-19.85 Y17.78 Z4.86 F1800.0
G1 X-20.2 Y17.68 Z4.86 F1800.0
G1 X-20.4 Y17.49 Z4.86 F1800.0
G1 X-20.49 Y17.14 Z4.86 F1800.0
G1 X-20.49 Y-13.79 Z4.86 F1800.0
G1 X-20.4 Y-14.14 Z4.86 F1800.0
G1 X-20.2 Y-14.34 Z4.86 F1800.0
M103
(</loop>)
G1 X-17.69 Y-13.96 Z4.86 F1800.0
M101
G1 X-20.16 Y-13.96 Z4.86 F1800.0
G1 X-20.22 Y-13.5 Z4.86 F1800.0
G1 X-19.75 Y-13.03 Z4.86 F1800.0
G1 X-18.15 Y-12.57 Z4.86 F1800.0
G1 X-17.69 Y-12.1 Z4.86 F1800.0
G1 X-18.02 Y-11.77 Z4.86 F1800.0
G1 X-17.69 Y-11.64 Z4.86 F1800.0
G1 X-17.87 Y-11.21 Z4.86 F1800.0
G1 X-17.69 Y-10.71 Z4.86 F1800.0
G1 X-18.15 Y-10.24 Z4.86 F1800.0
G1 X-17.69 Y-9.77 Z4.86 F1800.0
G1 X-18.02 Y-9.45 Z4.86 F1800.0
G1 X-17.69 Y-8.84 Z4.86 F1800.0
G1 X-18.15 Y-8.38 Z4.86 F1800.0
